; generated by Slic3r 1.2.9 on 2017-06-09 at 11:18:59

; external perimeters extrusion width = 0.40mm
; perimeters extrusion width = 0.48mm
; infill extrusion width = 0.48mm
; solid infill extrusion width = 0.48mm
; top infill extrusion width = 0.48mm
; support material extrusion width = 0.40mm

M107
M190 S100 ; set bed temperature
M104 S240 ; set temperature
G28 ; home all axes
G1 Z5 F5000 ; lift nozzle

M109 S240 ; wait for temperature to be reached
G21 ; set units to millimeters
G90 ; use absolute coordinates
M82 ; use absolute distances for extrusion
G92 E0
G1 Z0.300 F5400.000
G1 E-2.00000 F2400.00000
G92 E0
G1 Z0.450 F5400.000
G1 X91.278 Y87.381 F5400.000
G1 Z0.300 F5400.000
G1 E2.00000 F2400.00000
G1 X92.074 Y86.605 E2.07425 F1800.000
G1 X92.757 Y86.014 E2.13458
G1 X93.780 Y85.229 E2.22073
G1 X94.599 Y84.677 E2.28670
G1 X95.272 Y84.271 E2.33920
G1 X95.798 Y83.982 E2.37931
G1 X96.680 Y83.543 E2.44513
G1 X97.497 Y83.190 E2.50460
G1 X98.709 Y82.749 E2.59074
G1 X99.669 Y82.466 E2.65760
G1 X100.433 Y82.282 E2.71010
G1 X101.009 Y82.167 E2.74932
G1 X102.004 Y82.011 E2.81661
G1 X102.784 Y81.928 E2.86904
G1 X103.365 Y81.890 E2.90791
G1 X104.266 Y81.864 E2.96817
G1 X106.511 Y82.250 E3.12034
G1 X107.957 Y82.983 E3.22861 F1800.000
G1 X109.957 Y84.333 E3.38981
G1 X110.921 Y85.129 E3.47335
G1 X111.921 Y86.129 E3.56783
G1 X113.227 Y87.995 E3.72000
G1 X113.836 Y90.750 E3.90847
G1 X113.836 Y109.000 E5.12767
G1 X113.439 Y111.243 E5.27984
G1 X111.921 Y113.621 E5.46831
G1 X110.921 Y114.621 E5.56279
G1 X110.383 Y115.103 E5.61108
G1 X108.383 Y116.703 E5.78218
G1 X106.383 Y117.795 E5.93436
G1 X104.266 Y118.136 E6.07761
G1 X103.578 Y118.121 E6.12359
G1 X102.785 Y118.072 E6.17669
G1 X101.995 Y117.988 E6.22974
G1 X101.219 Y117.872 E6.28215
G1 X100.433 Y117.718 E6.33564
G1 X99.750 Y117.554 E6.38262
G1 X98.709 Y117.251 E6.45503
G1 X98.147 Y117.060 E6.49469
G1 X97.406 Y116.774 E6.54771
G1 X96.680 Y116.457 E6.60067
G1 X95.968 Y116.108 E6.65366
G1 X95.272 Y115.729 E6.70661
G1 X94.681 Y115.373 E6.75265
G1 X93.780 Y114.771 E6.82507
G1 X93.291 Y114.412 E6.86558
G1 X92.670 Y113.916 E6.91867
G1 X92.074 Y113.394 E6.97162
G1 X91.500 Y112.847 E7.02457
G1 X90.951 Y112.276 E7.07755
G1 X90.426 Y111.679 E7.13060
G1 X89.928 Y111.061 E7.18363
G1 X89.530 Y110.522 E7.22841
G1 X88.928 Y109.621 E7.30083
G1 X88.605 Y109.086 E7.34257
G1 X88.148 Y108.244 E7.40656
G1 X87.871 Y107.679 E7.44858
G1 X87.550 Y106.953 E7.50159
G1 X87.265 Y106.221 E7.55412
G1 X87.049 Y105.593 E7.59845
G1 X86.746 Y104.552 E7.67087
G1 X86.596 Y103.931 E7.71357
G1 X86.441 Y103.153 E7.76657
G1 X86.320 Y102.369 E7.81959
G1 X86.234 Y101.589 E7.87198
G1 X86.182 Y100.797 E7.92499
G1 X86.166 Y100.147 E7.96848
G1 X86.182 Y99.211 E8.03097
G1 X86.222 Y98.565 E8.07420
G1 X86.340 Y97.488 E8.14663
G1 X86.442 Y96.839 E8.19046
G1 X86.596 Y96.069 E8.24295
G1 X86.784 Y95.299 E8.29594
G1 X86.961 Y94.686 E8.33852
G1 X87.262 Y93.787 E8.40189
G1 X87.491 Y93.195 E8.44424
G1 X87.927 Y92.203 E8.51666
G1 X88.225 Y91.603 E8.56141
G1 X88.608 Y90.908 E8.61443
G1 X89.017 Y90.236 E8.66697
G1 X89.459 Y89.577 E8.71996
G1 X89.928 Y88.939 E8.77291
G1 X90.426 Y88.321 E8.82591
G1 X91.237 Y87.424 E8.90667
G1 E6.90667 F2400.00000
G92 E0
G1 Z0.450 F5400.000
G1 X104.157 Y111.444 F5400.000
G1 Z0.300 F5400.000
G1 E2.00000 F2400.00000
G1 X103.287 Y111.405 E2.05816 F1800.000
G1 X102.399 Y111.284 E2.11803
G1 E0.11803 F2400.00000
G92 E0
G1 Z0.450 F5400.000
G1 X95.920 Y107.788 F5400.000
G1 Z0.300 F5400.000
G1 E2.00000 F2400.00000
G1 X95.444 Y107.256 E2.04773 F1800.000
G1 X94.940 Y106.580 E2.10406
G1 E0.10406 F2400.00000
G92 E0
G1 Z0.450 F5400.000
G1 X94.399 Y94.267 F5400.000
G1 Z0.300 F5400.000
G1 E2.00000 F2400.00000
G1 X94.837 Y93.555 E2.05588 F1800.000
G1 X95.269 Y92.977 E2.10406
G1 X96.802 Y91.349 F5400.000
G1 X97.212 Y91.007 E2.13973 F1800.000
G1 X97.820 Y90.572 E2.18964
G1 X99.763 Y89.489 F5400.000
G1 X100.382 Y89.242 E2.23415 F1800.000
G1 X101.221 Y88.979 E2.29289
G1 X101.415 Y88.927 F5400.000
G1 X102.291 Y88.728 E2.35288 F1800.000
G1 X103.017 Y88.631 E2.40186
G1 E0.40186 F2400.00000
G92 E0
G1 Z0.450 F5400.000
G1 X103.464 Y91.164 F5400.000
G1 Z0.300 F5400.000
G1 E2.00000 F2400.00000
G1 X103.136 Y91.164 E2.02196 F1800.000
G1 X103.136 Y90.310 E2.07905
G1 X103.464 Y90.281 E2.10109
G1 X103.464 Y91.104 E2.15608
G1 X104.000 Y90.800 F5400.000
G1 X106.600 Y90.800 E2.32977 F1800.000
G1 X106.600 Y90.474 E2.35153
G1 X107.000 Y90.874 E2.38933
G1 X107.000 Y92.450 E2.49459
G1 X106.600 Y92.450 E2.52132
G1 X106.600 Y91.700 E2.57142
G1 X102.600 Y91.700 E2.83864
G1 X102.600 Y90.579 E2.91355
G1 X101.470 Y90.879 E2.99166
G1 X101.077 Y91.010 E3.01936
G1 X100.232 Y91.353 E3.08029
G1 X99.855 Y90.700 E3.13067
G1 X100.759 Y90.328 E3.19599
G1 X101.225 Y90.170 E3.22887
G1 X101.710 Y90.032 E3.26258
G1 X102.503 Y89.858 E3.31681
G1 X102.963 Y89.787 E3.34786
G1 X104.000 Y89.697 E3.41743
G1 X104.000 Y90.740 E3.48711
G1 X104.000 Y91.200 F5400.000
G1 X103.732 Y91.250 F5400.000
G1 X106.732 Y91.250 E3.91203 F1800.000
G1 X102.868 Y90.151 F5400.000
G1 X101.803 Y90.399 E3.98510 F1800.000
G1 X101.359 Y90.521 E4.01581
G1 X100.891 Y90.680 E4.04886
G1 X100.293 Y90.925 E4.09200
G1 X98.853 Y92.166 F5400.000
G1 X98.366 Y92.517 E4.13216 F1800.000
G1 X97.708 Y93.090 E4.19040
G1 X97.391 Y93.407 E4.22034
G1 X96.814 Y94.070 E4.27905
G1 X96.466 Y94.553 E4.31886
G1 X95.810 Y94.175 E4.36946
G1 X96.410 Y93.379 E4.43601
G1 X97.019 Y92.715 E4.49624
G1 X97.339 Y92.409 E4.52581
G1 X98.012 Y91.842 E4.58460
G1 X98.477 Y91.515 E4.62258
G1 X98.823 Y92.114 E4.66882
G1 X98.454 Y92.193 F5400.000
G1 X98.446 Y91.996 F5400.000
G1 X98.131 Y92.229 E4.69500 F1800.000
G1 X97.592 Y92.690 E4.74240
G1 X97.288 Y92.978 E4.77033
G1 X96.700 Y93.624 E4.82867
G1 X96.295 Y94.145 E4.87281
G1 X95.667 Y95.939 F5400.000
G1 X95.398 Y96.540 E4.91679 F1800.000
G1 X95.101 Y97.432 E4.97959
G1 X94.983 Y97.904 E5.01208
G1 X94.822 Y98.823 E5.07440
G1 X94.753 Y99.760 E5.13719
G1 X94.753 Y100.240 E5.16921
G1 X94.822 Y101.177 E5.23200
G1 X94.984 Y102.103 E5.29480
G1 X95.101 Y102.568 E5.32682
G1 X95.396 Y103.453 E5.38914
G1 X95.667 Y104.061 E5.43359
G1 X95.010 Y104.440 E5.48430
G1 X94.611 Y103.493 E5.55291
G1 X94.445 Y102.994 E5.58811
G1 X94.311 Y102.508 E5.62175
G1 X94.139 Y101.680 E5.67823
G1 X94.066 Y101.166 E5.71295
G1 X94.022 Y100.657 E5.74707
G1 X94.002 Y99.812 E5.80356
G1 X94.024 Y99.300 E5.83780
G1 X94.073 Y98.784 E5.87239
G1 X94.207 Y97.949 E5.92888
G1 X94.319 Y97.456 E5.96264
G1 X94.462 Y96.951 E5.99772
G1 X94.745 Y96.155 E6.05416
G1 X95.005 Y95.557 E6.09771
G1 X95.615 Y95.909 E6.14472
G1 X95.335 Y96.163 F5400.000
G1 X95.227 Y95.995 F5400.000
G1 X95.053 Y96.401 E6.17423 F1800.000
G1 X94.824 Y97.067 E6.22127
G1 X94.618 Y97.823 E6.27361
G1 X94.451 Y98.782 E6.33868
G1 X94.378 Y99.815 E6.40787
G1 X94.383 Y100.257 E6.43740
G1 X94.441 Y101.123 E6.49536
G1 X94.621 Y102.177 E6.56677
G1 X94.807 Y102.883 E6.61559
G1 X95.048 Y103.582 E6.66501
G1 X95.228 Y104.005 E6.69567
G1 X96.469 Y105.450 F5400.000
G1 X96.819 Y105.936 E6.73564 F1800.000
G1 X97.386 Y106.588 E6.79341
G1 X97.703 Y106.905 E6.82335
G1 X98.371 Y107.487 E6.88253
G1 X98.853 Y107.834 E6.92222
G1 X98.478 Y108.484 E6.97235
G1 X97.952 Y108.109 E7.01551
G1 X97.339 Y107.592 E7.06909
G1 X97.019 Y107.285 E7.09868
G1 X96.410 Y106.621 E7.15890
G1 X95.811 Y105.827 E7.22537
G1 X96.417 Y105.480 E7.27199
G1 X96.495 Y105.850 F5400.000
G1 X96.297 Y105.857 F5400.000
G1 X96.700 Y106.377 E7.31591 F1800.000
G1 X97.288 Y107.022 E7.37426
G1 X97.592 Y107.310 E7.40225
G1 X98.135 Y107.776 E7.45006
G1 X98.447 Y108.002 E7.47576
G1 E5.47576 F2400.00000
G92 E0
G1 Z0.450 F5400.000
G1 X103.136 Y108.586 F5400.000
G1 Z0.300 F5400.000
G1 E2.00000 F2400.00000
G1 X103.464 Y108.586 E2.02196 F1800.000
G1 X103.464 Y109.720 E2.09773
G1 X103.136 Y109.692 E2.11977
G1 X103.136 Y108.646 E2.18967
G1 X104.000 Y108.950 F5400.000
G1 X104.000 Y110.303 E2.28004 F1800.000
G1 X103.042 Y110.222 E2.34427
G1 X102.524 Y110.146 E2.37925
G1 X102.060 Y110.053 E2.41087
G1 X101.275 Y109.845 E2.46509
G1 X100.802 Y109.688 E2.49839
G1 X100.338 Y109.507 E2.53168
G1 X99.863 Y109.286 E2.56670
G1 X100.232 Y108.647 E2.61600
G1 X101.077 Y108.990 E2.67693
G1 X101.470 Y109.121 E2.70464
G1 X102.600 Y109.421 E2.78274
G1 X102.600 Y108.050 E2.87435
G1 X106.600 Y108.050 E3.14157
G1 X106.600 Y107.300 E3.19168
G1 X107.000 Y107.300 E3.21840
G1 X107.000 Y108.876 E3.32367
G1 X106.600 Y109.276 E3.36146
G1 X106.600 Y108.950 E3.38322
G1 X104.060 Y108.950 E3.55290
G1 X103.600 Y108.950 F5400.000
G1 X103.732 Y108.500 F5400.000
G1 X106.732 Y108.500 E3.97783 F1800.000
G1 E1.97783 F2400.00000
G92 E0
G1 Z0.450 F5400.000
G1 X102.868 Y109.848 F5400.000
G1 Z0.300 F5400.000
G1 E2.00000 F2400.00000
G1 X102.144 Y109.688 E2.04950 F1800.000
G1 X101.366 Y109.481 E2.10332
G1 X100.930 Y109.335 E2.13405
G1 X100.294 Y109.075 E2.17995
G1 Z0.300 F5400.000
G1 X101.373 Y108.328 F5400.000
G1 X101.792 Y107.492 E2.24244 F1800.000
G1 X100.941 Y106.799 E2.31575
G1 X100.383 Y107.912 E2.39892
G1 X99.452 Y107.378 E2.47060
G1 X99.983 Y106.319 E2.54976
G1 X99.026 Y105.839 E2.62132
G1 X98.583 Y106.722 E2.68733
G1 E0.68733 F2400.00000
G92 E0
G1 Z0.450 F5400.000
G1 X98.883 Y94.169 F5400.000
G1 Z0.300 F5400.000
G1 E2.00000 F2400.00000
G1 X99.690 Y92.560 E2.12029 F1800.000
G1 X101.292 Y91.754 E2.24008
G1 X100.478 Y93.378 E2.36140
G1 Z0.600 F5400.000
G1 X100.700 Y93.137 F5400.000
G1 X100.700 Y92.136 E2.40329 F1200.000
G1 X100.284 Y92.339 E2.42264
G1 X99.619 Y92.726 E2.45485
G1 X98.895 Y93.250 E2.49228
G1 X100.473 Y93.250 E2.55832
G1 X100.700 Y93.137 E2.56894
G1 E0.56894 F2400.00000
G92 E0
G1 Z0.750 F5400.000
G1 X101.700 Y107.359 F5400.000
G1 Z0.600 F5400.000
G1 E2.00000 F2400.00000
G1 X98.600 Y105.820 E2.14487 F1200.000
G1 X98.600 Y106.503 E2.17345
G1 X98.984 Y106.822 E2.19433
G1 X99.318 Y107.069 E2.21172
G1 X99.623 Y107.276 E2.22717
G1 X100.284 Y107.661 E2.25920
G1 X101.007 Y107.998 E2.29256
G1 X101.700 Y108.249 E2.32343
G1 X101.700 Y107.359 E2.36070
G1 Z0.600 F5400.000
G1 E0.36070 F2400.00000
G92 E0
G1 Z0.750 F5400.000
G1 X103.723 Y91.077 F5400.000
G1 Z0.600 F5400.000
G1 E2.00000 F2400.00000
G1 X106.723 Y91.077 E2.15673 F900.000
G1 X106.723 Y91.423 E2.17479
G1 X102.877 Y91.423 E2.37569
G1 X102.877 Y90.081 E2.44577
G1 X103.723 Y89.999 E2.49016
G1 X103.723 Y91.017 E2.54336
G1 X104.100 Y90.700 F5400.000
G1 X106.500 Y90.700 E2.64382 F900.000
G1 X106.500 Y90.233 E2.66338
G1 X107.100 Y90.833 E2.69890
G1 X107.100 Y92.550 E2.77078
G1 X106.500 Y92.550 E2.79589
G1 X106.500 Y91.800 E2.82729
G1 X102.500 Y91.800 E2.99473
G1 X102.500 Y90.709 E3.04041
G1 X101.510 Y90.971 E3.08327
G1 X101.108 Y91.106 E3.10104
G1 X100.195 Y91.490 E3.14249
G1 X99.720 Y90.667 E3.18229
G1 X100.035 Y90.515 E3.19695
G1 X100.630 Y90.270 E3.22389
G1 X101.195 Y90.074 E3.24889
G1 X101.806 Y89.905 E3.27546
G1 X102.435 Y89.769 E3.30240
G1 X102.951 Y89.688 E3.32423
G1 X103.833 Y89.611 E3.36131
G1 X104.100 Y89.605 E3.37248
G1 X104.100 Y90.640 E3.41583
G1 X104.100 Y91.100 F5400.000
G1 X103.300 Y90.246 F5400.000
G1 X103.300 Y91.213 E3.52463 F1200.000
G1 X102.689 Y90.184 F5400.000
G1 X101.336 Y90.528 E3.68165 F1200.000
G1 X100.799 Y90.716 E3.74565
G1 X100.125 Y90.992 E3.82762
G1 X98.985 Y92.194 F5400.000
G1 X98.420 Y92.602 E3.85678 F900.000
G1 X97.778 Y93.161 E3.89244
G1 X97.465 Y93.474 E3.91094
G1 X96.892 Y94.132 E3.94747
G1 X96.494 Y94.685 E3.97598
G1 X95.666 Y94.207 E4.01603
G1 X96.208 Y93.470 E4.05432
G1 X96.624 Y92.983 E4.08113
G1 X96.945 Y92.648 E4.10056
G1 X97.605 Y92.042 E4.13808
G1 X98.000 Y91.726 E4.15925
G1 X98.509 Y91.369 E4.18525
G1 X98.955 Y92.143 E4.22262
G1 X98.586 Y92.221 F5400.000
G1 X98.592 Y91.891 F5400.000
G1 X98.116 Y92.239 E4.28904 F1200.000
G1 X97.278 Y92.988 E4.41542
G1 X96.578 Y93.768 E4.53337
G1 X96.188 Y94.290 E4.60672
G1 X95.795 Y95.898 F5400.000
G1 X95.493 Y96.574 E4.63775 F900.000
G1 X95.333 Y97.018 E4.65749
G1 X95.087 Y97.896 E4.69563
G1 X94.922 Y98.835 E4.73557
G1 X94.853 Y99.764 E4.77456
G1 X94.854 Y100.257 E4.79519
G1 X94.922 Y101.165 E4.83330
G1 X95.082 Y102.082 E4.87228
G1 X95.198 Y102.540 E4.89203
G1 X95.484 Y103.404 E4.93014
G1 X95.795 Y104.102 E4.96214
G1 X94.967 Y104.580 E5.00216
G1 X94.812 Y104.257 E5.01716
G1 X94.561 Y103.646 E5.04479
G1 X94.349 Y103.022 E5.07238
G1 X94.194 Y102.454 E5.09705
G1 X94.059 Y101.808 E5.12467
G1 X93.967 Y101.177 E5.15137
G1 X93.916 Y100.568 E5.17693
G1 X93.901 Y99.909 E5.20456
G1 X93.924 Y99.293 E5.23035
G1 X93.987 Y98.664 E5.25682
G1 X94.092 Y98.012 E5.28444
G1 X94.222 Y97.432 E5.30933
G1 X94.404 Y96.805 E5.33668
G1 X94.664 Y96.089 E5.36856
G1 X94.970 Y95.422 E5.39928
G1 X95.743 Y95.868 E5.43662
G1 X95.463 Y96.121 F5400.000
G1 X95.304 Y95.832 F5400.000
G1 X95.106 Y96.270 E5.49067 F1200.000
G1 X94.885 Y96.864 E5.56201
G1 X94.629 Y97.777 E5.66868
G1 X94.453 Y98.763 E5.78133
G1 X94.377 Y99.912 E5.91094
G1 X94.395 Y100.543 E5.98196
G1 X94.441 Y101.123 E6.04739
G1 X94.622 Y102.191 E6.16931
G1 X94.746 Y102.682 E6.22632
G1 X95.008 Y103.479 E6.32071
G1 X95.298 Y104.171 E6.40515
G1 X96.494 Y105.315 F5400.000
G1 X96.906 Y105.884 E6.43454 F900.000
G1 X97.451 Y106.510 E6.46930
G1 X97.763 Y106.824 E6.48781
G1 X98.436 Y107.411 E6.52522
G1 X98.985 Y107.806 E6.55351
G1 X98.507 Y108.634 E6.59356
G1 X97.770 Y108.092 E6.63184
G1 X97.283 Y107.676 E6.65865
G1 X96.948 Y107.355 E6.67807
G1 X96.315 Y106.663 E6.71733
G1 X95.922 Y106.160 E6.74405
G1 X95.668 Y105.792 E6.76278
G1 X96.442 Y105.345 E6.80020
G1 X96.522 Y105.714 F5400.000
G1 X96.185 Y105.711 F5400.000
G1 X96.681 Y106.354 E6.89155 F1200.000
G1 X97.288 Y107.022 E6.99317
G1 X98.069 Y107.721 E7.11103
G1 X98.590 Y108.112 E7.18439
G1 E5.18439 F2400.00000
G92 E0
G1 Z0.750 F5400.000
G1 X104.300 Y111.450 F5400.000
G1 Z0.600 F5400.000
G1 E2.00000 F2400.00000
G1 X103.281 Y111.404 E2.05327 F600.000
G1 X102.802 Y111.346 E2.07852
G1 X101.838 Y111.181 E2.12959
G1 X100.851 Y110.916 E2.18300
G1 X99.912 Y110.575 E2.23519
G1 X99.394 Y110.340 E2.26492
G1 X98.571 Y109.912 E2.31340
G1 X97.746 Y109.386 E2.36447
G1 X96.935 Y108.764 E2.41787
G1 X96.199 Y108.089 E2.47006
G1 X95.422 Y107.228 E2.53065
G1 X94.652 Y106.163 E2.59932
G1 X94.142 Y105.277 E2.65272
G1 X93.721 Y104.371 E2.70491
G1 X93.381 Y103.432 E2.75709
G1 X93.124 Y102.467 E2.80927
G1 X92.991 Y101.759 E2.84690
G1 X92.897 Y100.988 E2.88747
G1 X92.854 Y100.012 E2.93854
G1 X92.896 Y99.014 E2.99073
G1 X93.030 Y98.000 E3.04412
G1 X93.241 Y97.046 E3.09519
G1 X93.477 Y96.277 E3.13720
G1 X93.722 Y95.629 E3.17338
G1 X94.154 Y94.703 E3.22677
G1 X94.308 Y94.419 E3.24368
G1 X94.830 Y93.566 E3.29591
G1 X95.445 Y92.745 E3.34952
G1 X96.216 Y91.895 E3.40944
G1 X96.858 Y91.301 E3.45515
G1 X97.244 Y90.984 E3.48127
G1 X98.077 Y90.391 E3.53470
G1 X98.951 Y89.878 E3.58761
G1 X99.913 Y89.424 E3.64320
G1 X100.377 Y89.244 E3.66922
G1 X101.291 Y88.958 E3.71923
G1 X102.278 Y88.731 E3.77212
G1 X103.295 Y88.594 E3.82573
G1 X104.300 Y88.550 E3.87831
G1 E1.87831 F2400.00000
G92 E0
G1 Z0.750 F5400.000
G1 X103.723 Y108.673 F5400.000
G1 Z0.600 F5400.000
G1 E2.00000 F2400.00000
G1 X103.723 Y110.005 E2.06961 F900.000
G1 X102.877 Y109.915 E2.11403
G1 X102.877 Y108.327 E2.19700
G1 X106.723 Y108.327 E2.39791
G1 X106.723 Y108.673 E2.41596
G1 X103.783 Y108.673 E2.56956
G1 X104.100 Y109.050 F5400.000
G1 X104.100 Y110.393 E2.62578 F900.000
G1 X103.658 Y110.378 E2.64429
G1 X102.954 Y110.312 E2.67391
G1 X101.974 Y110.136 E2.71557
G1 X101.354 Y109.973 E2.74242
G1 X100.768 Y109.782 E2.76820
G1 X100.196 Y109.555 E2.79397
G1 X99.721 Y109.331 E2.81595
G1 X100.195 Y108.510 E2.85567
G1 X101.108 Y108.894 E2.89712
G1 X101.510 Y109.029 E2.91488
G1 X102.500 Y109.291 E2.95775
G1 X102.500 Y107.950 E3.01389
G1 X106.500 Y107.950 E3.18133
G1 X106.500 Y107.200 E3.21273
G1 X107.100 Y107.200 E3.23785
G1 X107.100 Y108.917 E3.30973
G1 X106.500 Y109.517 E3.34525
G1 X106.500 Y109.050 E3.36480
G1 X104.160 Y109.050 E3.46275
G1 X103.700 Y109.050 F5400.000
G1 X103.300 Y108.537 F5400.000
G1 X103.300 Y109.755 E3.59988 F1200.000
G1 X102.689 Y109.807 F5400.000
G1 X102.077 Y109.671 E3.67040 F1200.000
G1 X101.383 Y109.485 E3.75122
G1 X100.930 Y109.335 E3.80496
G1 X100.123 Y109.011 E3.90271
G1 Z0.900 F5400.000
G1 E1.90271 F2400.00000
G92 E0
