; generated by Slic3r 1.2.9 on 2017-06-09 at 11:13:25

; external perimeters extrusion width = 0.40mm
; perimeters extrusion width = 0.48mm
; infill extrusion width = 0.48mm
; solid infill extrusion width = 0.48mm
; top infill extrusion width = 0.48mm
; support material extrusion width = 0.40mm

M107
M190 S100 ; set bed temperature
M104 S240 ; set temperature
G28 ; home all axes
G1 Z5 F5000 ; lift nozzle

M109 S240 ; wait for temperature to be reached
G21 ; set units to millimeters
G90 ; use absolute coordinates
M82 ; use absolute distances for extrusion
G92 E0
G1 Z0.300 F5400.000
G1 E-2.00000 F2400.00000
G92 E0
G1 Z0.450 F5400.000
G1 X88.554 Y79.906 F5400.000
G1 Z0.300 F5400.000
G1 E2.00000 F2400.00000
G1 X93.469 Y74.459 E2.49013 F1800.000
G1 X95.266 Y73.060 E2.64231
G1 X97.434 Y72.363 E2.79448
G1 X99.359 Y72.385 E2.92308
G1 X99.657 Y72.433 E2.94324 F1800.000
G1 X101.808 Y73.182 E3.09541
G1 X103.638 Y74.702 E3.25433
G1 X121.515 Y96.159 E5.12009
G1 X122.646 Y98.136 E5.27226
G1 X123.028 Y100.482 E5.43102
G1 X123.022 Y100.782 E5.45106
G1 X122.577 Y103.016 E5.60323
G1 X121.451 Y104.895 E5.74956
G1 X103.916 Y125.362 E7.55007
G1 X102.156 Y126.807 E7.70224
G1 X100.097 Y127.545 E7.84833
G1 X99.801 Y127.597 E7.86844
G1 X97.523 Y127.599 E8.02061
G1 X95.383 Y126.818 E8.17278
G1 X93.880 Y125.622 E8.30114
G1 X81.894 Y112.779 E9.47469
G1 X81.314 Y112.135 E9.53262
G1 X80.806 Y111.519 E9.58595
G1 X80.325 Y110.882 E9.63928
G1 X79.594 Y109.789 E9.72712
G1 X79.188 Y109.101 E9.78048
G1 X78.688 Y108.144 E9.85259
G1 X78.354 Y107.419 E9.90594
G1 X77.873 Y106.195 E9.99378
G1 X77.624 Y105.436 E10.04713
G1 X77.340 Y104.395 E10.11925
G1 X77.076 Y103.106 E10.20711
G1 X76.961 Y102.316 E10.26044
G1 X76.880 Y101.522 E10.31377
G1 X76.833 Y100.725 E10.36711
G1 X76.820 Y99.927 E10.42045
G1 X76.842 Y99.129 E10.47377
G1 X76.899 Y98.333 E10.52711
G1 X76.989 Y97.539 E10.58045
G1 X77.114 Y96.751 E10.63377
G1 X77.272 Y95.968 E10.68712
G1 X77.464 Y95.193 E10.74045
G1 X77.689 Y94.428 E10.79378
G1 X77.947 Y93.672 E10.84712
G1 X78.237 Y92.928 E10.90045
G1 X78.559 Y92.198 E10.95378
G1 X79.044 Y91.233 E11.02592
G1 X79.709 Y90.099 E11.11376
G1 X80.315 Y89.204 E11.18591
G1 X81.121 Y88.165 E11.27376
G1 X81.688 Y87.515 E11.33140
G1 X88.513 Y79.951 E12.01203
G1 E10.01203 F2400.00000
G92 E0
G1 Z0.450 F5400.000
G1 X103.817 Y108.100 F5400.000
G1 Z0.300 F5400.000
G1 E2.00000 F2400.00000
G1 X103.585 Y107.890 E2.02092 F1800.000
G1 X104.165 Y107.218 E2.08021
G1 X104.767 Y106.379 E2.14917
G1 X105.293 Y105.491 E2.21815
G1 X105.752 Y104.521 E2.28984
G1 X106.096 Y103.595 E2.35585
G1 X106.245 Y103.094 E2.39077
G1 X106.472 Y102.090 E2.45950
G1 X106.609 Y101.067 E2.52845
G1 X106.655 Y100.036 E2.59740
G1 X106.609 Y99.008 E2.66613
G1 X106.551 Y98.489 E2.70105
G1 X106.377 Y97.517 E2.76702
G1 X106.097 Y96.481 E2.83870
G1 X105.737 Y95.513 E2.90771
G1 X105.294 Y94.584 E2.97644
G1 X105.038 Y94.128 E3.01137
G1 X104.499 Y93.301 E3.07735
G1 X103.836 Y92.457 E3.14904
G1 X103.601 Y92.207 E3.17196
G1 X103.831 Y91.986 E3.19326
G1 X104.084 Y92.246 E3.21748
G1 X104.727 Y93.032 E3.28531
G1 X105.299 Y93.871 E3.35314
G1 X105.796 Y94.757 E3.42098
G1 X106.214 Y95.682 E3.48881
G1 X106.551 Y96.640 E3.55664
G1 X106.804 Y97.626 E3.62469
G1 X106.897 Y98.119 E3.65818
G1 X107.019 Y99.130 E3.72624
G1 X107.059 Y100.291 E3.80381
G1 X106.970 Y101.438 E3.88067
G1 X106.807 Y102.428 E3.94771
G1 X106.560 Y103.401 E4.01474
G1 X106.231 Y104.348 E4.08178
G1 X105.821 Y105.265 E4.14881
G1 X105.335 Y106.142 E4.21585
G1 X104.775 Y106.975 E4.28288
G1 X104.146 Y107.756 E4.34992
G1 X103.858 Y108.057 E4.37770
G1 X103.724 Y107.801 F5400.000
G1 E2.37770 F2400.00000
G92 E0
G1 Z0.450 F5400.000
G1 X103.532 Y91.858 F5400.000
G1 Z0.300 F5400.000
G1 E2.00000 F2400.00000
G1 X102.517 Y90.970 E2.09011 F1800.000
G1 X102.010 Y90.588 E2.13249
G1 X101.173 Y90.038 E2.19940
G1 X100.251 Y89.542 E2.26930
G1 X99.952 Y89.404 E2.29132
G1 X99.017 Y89.033 E2.35853
G1 X98.052 Y88.745 E2.42580
G1 X96.923 Y88.505 E2.50291
G1 X96.999 Y87.980 E2.53833
G1 X98.058 Y88.543 F5400.000
G1 X96.785 Y88.500 E2.62341 F1800.000
G1 X96.260 Y88.436 E2.65878
G1 X95.709 Y88.404 E2.69560
G1 X94.958 Y88.399 E2.74583
G1 X94.273 Y88.438 E2.79166
G1 X93.659 Y88.512 E2.83296
G1 X93.037 Y88.626 E2.87519
G1 X92.619 Y88.716 E2.90374
G1 X91.827 Y88.937 E2.95871
G1 X90.657 Y89.377 E3.04220
G1 X89.732 Y89.838 E3.11125
G1 X89.106 Y90.206 E3.15975
G1 X88.281 Y90.784 E3.22702
G1 X87.641 Y91.311 E3.28245
G1 X86.895 Y92.030 E3.35167
G1 X86.217 Y92.814 E3.42090
G1 X85.857 Y93.300 E3.46132
G1 X85.597 Y93.682 E3.49219
G1 X85.085 Y94.548 E3.55936
G1 X84.621 Y95.509 E3.63064
G1 X84.271 Y96.451 E3.69781
G1 X84.009 Y97.397 E3.76339
G1 X83.911 Y97.881 E3.79640
G1 X83.764 Y98.877 E3.86367
G1 X83.708 Y100.021 E3.94013
G1 X83.739 Y100.882 E3.99770
G1 X83.812 Y101.579 E4.04450
G1 X83.945 Y102.372 E4.09822
G1 X84.056 Y102.857 E4.13148
G1 X84.274 Y103.620 E4.18451
G1 X84.624 Y104.562 E4.25167
G1 X85.085 Y105.525 E4.32294
G1 X85.597 Y106.390 E4.39011
G1 X85.964 Y106.922 E4.43327
G1 X86.219 Y107.256 E4.46139
G1 X86.894 Y108.043 E4.53063
G1 X87.633 Y108.759 E4.59935
G1 X88.016 Y109.084 E4.63294
G1 X88.869 Y109.713 E4.70374
G1 X89.698 Y110.220 E4.76864
G1 X90.137 Y110.446 E4.80165
G1 X91.056 Y110.858 E4.86890
G1 X92.003 Y111.188 E4.93590
G1 X92.975 Y111.439 E5.00300
G1 X93.716 Y111.563 E5.05318
G1 X94.466 Y111.647 E5.10360
G1 X95.185 Y111.681 E5.15165
G1 X95.967 Y111.656 E5.20394
G1 X97.049 Y111.539 E5.27664
G1 X98.223 Y111.286 E5.35683
G1 X99.171 Y110.984 E5.42331
G1 X99.742 Y110.759 E5.46435
G1 X100.090 Y110.606 E5.48972
G1 X100.973 Y110.151 E5.55606
G1 X101.647 Y109.737 E5.60889
G1 X102.427 Y109.171 E5.67334
G1 X102.837 Y108.831 E5.70887
G1 X103.501 Y108.219 E5.76923
G1 E3.76923 F2400.00000
G92 E0
G1 Z0.450 F5400.000
G1 X96.754 Y109.686 F5400.000
G1 Z0.300 F5400.000
G1 E2.00000 F2400.00000
G1 X96.754 Y110.193 E2.03386 F1800.000
G1 X95.863 Y110.303 E2.09387
G1 X95.354 Y110.324 E2.12786
G1 X95.354 Y109.686 E2.17045
G1 X96.694 Y109.686 E2.25997
G1 X96.554 Y110.032 F5400.000
G1 E0.25997 F2400.00000
G92 E0
G1 Z0.450 F5400.000
G1 X101.232 Y106.372 F5400.000
G1 Z0.300 F5400.000
G1 E2.00000 F2400.00000
G1 X101.232 Y104.372 E2.13361 F1800.000
G1 X102.079 Y104.372 E2.19018
G1 X101.532 Y105.318 E2.26319
G1 X102.756 Y106.025 E2.35760
G1 X102.535 Y106.311 E2.38181
G1 X101.959 Y106.940 E2.43876
G1 X101.330 Y107.516 E2.49571
G1 X101.043 Y107.738 E2.51992
G1 X100.255 Y106.372 E2.62529
G1 X101.172 Y106.372 E2.68655
G1 X100.170 Y106.610 F5400.000
G1 X98.990 Y107.291 E2.77757 F1800.000
G1 X98.990 Y106.372 E2.83900
G1 X100.106 Y106.372 E2.91356
G1 X100.155 Y106.552 E2.92602
G1 X96.219 Y106.372 F5400.000
G1 X96.219 Y106.850 E2.95801 F1800.000
G1 X95.890 Y106.850 E2.97997
G1 X95.890 Y106.372 E3.01196
G1 X96.159 Y106.372 E3.02991
G1 E1.02991 F2400.00000
G92 E0
G1 Z0.450 F5400.000
G1 X103.715 Y102.270 F5400.000
G1 Z0.300 F5400.000
G1 E2.00000 F2400.00000
G1 X103.715 Y97.837 E2.29618 F1800.000
G1 X103.997 Y97.802 E2.31515
G1 X104.098 Y98.202 E2.34274
G1 X104.229 Y99.047 E2.39984
G1 X104.263 Y99.437 E2.42604
G1 X104.281 Y100.214 E2.47794
G1 X104.262 Y100.663 E2.50799
G1 X104.219 Y101.117 E2.53840
G1 X104.096 Y101.883 E2.59024
G1 X104.000 Y102.302 E2.61898
G1 X103.774 Y102.277 E2.63416
G1 X103.179 Y103.184 F5400.000
G1 X103.179 Y96.888 E3.05482 F1800.000
G1 X104.099 Y96.357 E3.12576
G1 X104.396 Y97.197 E3.18533
G1 X104.623 Y98.095 E3.24718
G1 X104.761 Y98.982 E3.30716
G1 X104.798 Y99.408 E3.33572
G1 X104.817 Y100.219 E3.38993
G1 X104.796 Y100.700 E3.42207
G1 X104.750 Y101.184 E3.45457
G1 X104.622 Y101.985 E3.50874
G1 X104.517 Y102.447 E3.54040
G1 X104.382 Y102.922 E3.57338
G1 X104.100 Y103.716 E3.62968
G1 X103.231 Y103.214 E3.69670
G1 E1.69670 F2400.00000
G92 E0
G1 Z0.450 F5400.000
G1 X101.532 Y94.754 F5400.000
G1 Z0.300 F5400.000
G1 E2.00000 F2400.00000
G1 X102.079 Y95.700 E2.07301 F1800.000
G1 X101.232 Y95.700 E2.12957
G1 X101.232 Y93.700 E2.26318
G1 X100.255 Y93.700 E2.32846
G1 X101.048 Y92.328 E2.43436
G1 X101.657 Y92.843 E2.48768
G1 X101.953 Y93.125 E2.51499
G1 X102.535 Y93.761 E2.57255
G1 X102.756 Y94.047 E2.59676
G1 X101.584 Y94.724 E2.68717
G1 X100.106 Y93.700 F5400.000
G1 X98.990 Y93.700 E2.76174 F1800.000
G1 X98.990 Y92.781 E2.82316
G1 X100.170 Y93.462 E2.91418
G1 X100.122 Y93.642 E2.92665
G1 X96.219 Y93.700 F5400.000
G1 X95.890 Y93.700 E2.94861 F1800.000
G1 X95.890 Y92.972 E2.99730
G1 X96.219 Y92.972 E3.01926
G1 X96.219 Y93.640 E3.06393
G1 X96.754 Y93.186 F5400.000
G1 X98.454 Y93.186 E3.17750 F1800.000
G1 X98.454 Y90.662 E3.34614
G1 X98.329 Y90.536 E3.35801
G1 X98.464 Y90.320 E3.37505
G1 X99.500 Y90.736 E3.44969
G1 X98.755 Y92.027 E3.54923
G1 X100.141 Y92.827 E3.65612
G1 X100.877 Y91.552 E3.75445
G1 X101.403 Y91.927 E3.79761
G1 X102.016 Y92.444 E3.85119
G1 X102.336 Y92.751 E3.88077
G1 X102.945 Y93.415 E3.94100
G1 X103.545 Y94.211 E4.00756
G1 X102.264 Y94.950 E4.10636
G1 X103.064 Y96.336 E4.21325
G1 X104.339 Y95.599 E4.31163
G1 X104.598 Y96.162 E4.35297
G1 X104.910 Y97.042 E4.41537
G1 X105.148 Y97.988 E4.48055
G1 X105.293 Y98.918 E4.54341
G1 X105.333 Y99.379 E4.57433
G1 X105.352 Y100.224 E4.63083
G1 X105.331 Y100.736 E4.66507
G1 X105.282 Y101.252 E4.69967
G1 X105.148 Y102.087 E4.75616
G1 X105.036 Y102.580 E4.78991
G1 X104.892 Y103.085 E4.82499
G1 X104.611 Y103.878 E4.88125
G1 X104.339 Y104.472 E4.92490
G1 X103.064 Y103.736 E5.02325
G1 X102.264 Y105.122 E5.13013
G1 X103.545 Y105.861 E5.22893
G1 X103.435 Y106.022 E5.24193
G1 X102.945 Y106.657 E5.29551
G1 X102.338 Y107.319 E5.35552
G1 X101.676 Y107.926 E5.41552
G1 X100.880 Y108.526 E5.48208
G1 X100.141 Y107.245 E5.58088
G1 X98.755 Y108.045 E5.68777
G1 X99.500 Y109.336 E5.78732
G1 X98.596 Y109.708 E5.85264
G1 X98.085 Y109.882 E5.88871
G1 X97.950 Y109.665 E5.90576
G1 X98.454 Y109.160 E5.95343
G1 X98.454 Y106.636 E6.12207
G1 X96.754 Y106.636 E6.23564
G1 X96.754 Y107.386 E6.28574
G1 X95.354 Y107.386 E6.37927
G1 X95.354 Y105.836 E6.48282
G1 X100.696 Y105.836 E6.83968
G1 X100.696 Y103.836 E6.97329
G1 X102.644 Y103.836 E7.10338
G1 X102.644 Y96.236 E7.61110
G1 X100.696 Y96.236 E7.74118
G1 X100.696 Y94.236 E7.87479
G1 X95.354 Y94.236 E8.23166
G1 X95.354 Y92.436 E8.35191
G1 X96.754 Y92.436 E8.44544
G1 X96.754 Y93.126 E8.49153
G1 X96.754 Y93.586 F5400.000
G1 E6.49153 F2400.00000
G92 E0
G1 Z0.450 F5400.000
G1 X96.452 Y90.136 F5400.000
G1 Z0.300 F5400.000
G1 E2.00000 F2400.00000
G1 X95.357 Y90.136 E2.07321 F1800.000
G1 X95.359 Y89.749 E2.09909
G1 X95.863 Y89.769 E2.13276
G1 X96.468 Y89.831 E2.17340
G1 X96.456 Y90.076 E2.18979
G1 X96.109 Y89.930 F5400.000
G1 E0.18979 F2400.00000
G92 E0
G1 Z0.450 F5400.000
G1 X96.487 Y93.711 F5400.000
G1 Z0.300 F5400.000
G1 E2.00000 F2400.00000
G1 X98.722 Y93.711 E2.31665 F1800.000
G1 E0.31665 F2400.00000
G92 E0
G1 Z0.450 F5400.000
G1 X98.722 Y106.236 F5400.000
G1 Z0.300 F5400.000
G1 E2.00000 F2400.00000
G1 X96.487 Y106.236 E2.14935 F1800.000
G1 Z0.300 F5400.000
G1 X97.533 Y105.100 F5400.000
G1 X98.109 Y103.952 E2.23513 F1800.000
G1 X97.025 Y103.724 E2.30913
G1 X97.953 Y101.872 E2.44748
G1 X96.754 Y101.872 E2.52753
G1 X96.139 Y103.100 E2.61924
G1 X94.941 Y103.100 E2.69929
G1 X95.556 Y101.872 E2.79100
G1 X94.358 Y101.872 E2.87105
G1 X93.462 Y103.659 E3.00454
G1 X94.546 Y103.887 E3.07854
G1 X93.462 Y106.050 E3.24016
G1 X94.546 Y106.278 E3.31416
G1 X94.235 Y106.900 E3.36065
G1 E1.36065 F2400.00000
G92 E0
G1 Z0.450 F5400.000
G1 X98.804 Y104.955 F5400.000
G1 Z0.300 F5400.000
G1 E2.00000 F2400.00000
G1 X99.296 Y103.973 E2.07338 F1800.000
G1 X98.804 Y102.564 E2.17307
G1 X99.151 Y101.872 E2.22474
G1 X99.912 Y102.744 F5400.000
G1 X100.349 Y101.872 E2.28984 F1800.000
G1 X100.932 Y103.100 F5400.000
G1 X101.836 Y101.297 E2.42451 F1800.000
G1 X100.752 Y101.070 E2.49851
G1 X101.477 Y99.622 E2.60665
G1 X100.752 Y98.679 F5400.000
G1 X101.607 Y96.972 E2.73416 F1800.000
G1 X100.409 Y96.972 E2.81421
G1 X99.912 Y97.962 E2.88816
G1 X98.804 Y97.782 F5400.000
G1 X99.296 Y96.800 E2.96154 F1800.000
G1 X98.804 Y95.392 E3.06123
G1 X99.014 Y94.972 E3.09255
G1 X97.816 Y94.972 F5400.000
G1 X97.025 Y96.552 E3.21055 F1800.000
G1 X98.109 Y96.780 E3.28455
G1 X97.397 Y98.200 E3.39068
G1 X96.814 Y96.972 F5400.000
G1 X96.199 Y98.200 E3.48239 F1800.000
G1 X95.000 Y98.200 E3.56244
G1 X95.615 Y96.972 E3.65415
G1 X94.546 Y96.715 F5400.000
G1 X93.802 Y98.200 E3.76514 F1800.000
G1 X93.462 Y96.487 E3.88181
G1 X94.546 Y94.324 E4.04343
G1 X93.462 Y94.096 E4.11743
G1 X93.925 Y93.172 E4.18643
G1 E2.18643 F2400.00000
G92 E0
G1 Z0.450 F5400.000
G1 X107.801 Y98.959 F5400.000
G1 Z0.300 F5400.000
G1 E2.00000 F2400.00000
G1 X108.194 Y98.175 E2.05863 F1800.000
G1 E0.05863 F2400.00000
G92 E0
G1 Z0.450 F5400.000
G1 X108.027 Y100.897 F5400.000
G1 Z0.300 F5400.000
G1 E2.00000 F2400.00000
G1 X107.807 Y101.337 E2.03287 F1800.000
G1 Z0.600 F5400.000
G1 E0.03287 F2400.00000
G92 E0
G1 Z0.750 F5400.000
G1 X98.753 Y120.841 F5400.000
G1 Z0.600 F5400.000
G1 E2.00000 F2400.00000
G1 X97.065 Y111.342 E2.50404 F600.000
G1 X97.198 Y111.283 E2.51165
G1 X98.211 Y111.042 E2.56606
G1 X99.117 Y110.740 E2.61596
G1 X100.031 Y110.346 E2.66795
G1 X100.904 Y109.876 E2.71975
G1 X101.740 Y109.329 E2.77193
G1 X102.517 Y108.714 E2.82373
G1 X103.023 Y108.252 E2.85951
G1 X103.714 Y107.522 E2.91206
G1 X104.217 Y106.899 E2.95387
G1 X104.777 Y106.077 E3.00586
G1 X105.265 Y105.209 E3.05784
G1 X105.675 Y104.306 E3.10969
G1 X106.006 Y103.367 E3.16168
G1 X106.256 Y102.404 E3.21367
G1 X106.415 Y101.422 E3.26567
G1 X106.493 Y100.421 E3.31810
G1 X106.534 Y100.281 E3.32574
G1 X116.191 Y100.486 E3.83037
G1 E1.83037 F2400.00000
G92 E0
G1 Z0.750 F5400.000
G1 X106.627 Y100.696 F5400.000
G1 Z0.600 F5400.000
G1 E2.00000 F2400.00000
G1 X106.502 Y100.138 E2.02986 F600.000
G1 X106.466 Y99.125 E2.08285
G1 X106.343 Y98.126 E2.13541
G1 X106.128 Y97.144 E2.18796
G1 X105.831 Y96.183 E2.24049
G1 X105.453 Y95.254 E2.29290
G1 X104.996 Y94.358 E2.34544
G1 X104.459 Y93.508 E2.39799
G1 X103.850 Y92.707 E2.45054
G1 X103.171 Y91.965 E2.50308
G1 X102.429 Y91.282 E2.55579
G1 X101.632 Y90.668 E2.60834
G1 X100.785 Y90.126 E2.66089
G1 X99.892 Y89.663 E2.71343
G1 X98.963 Y89.278 E2.76598
G1 X98.210 Y89.033 E2.80734
G1 X97.016 Y88.759 E2.87134
G1 X96.882 Y88.702 E2.87894
G1 X98.421 Y79.158 E3.38399
G1 E1.38399 F2400.00000
G92 E0
G1 Z0.750 F5400.000
G1 X97.292 Y88.662 F5400.000
G1 Z0.600 F5400.000
G1 E2.00000 F2400.00000
G1 X96.736 Y88.716 E2.02916 F600.000
G1 X95.896 Y88.618 E2.07335
G1 X95.055 Y88.586 E2.11732
G1 E0.11732 F2400.00000
G92 E0
G1 Z0.750 F5400.000
G1 X95.055 Y111.486 F5400.000
G1 Z0.600 F5400.000
G1 E2.00000 F2400.00000
G1 X95.986 Y111.447 E2.04869 F600.000
G1 X96.918 Y111.329 E2.09779
G1 X97.452 Y111.378 E2.12581
G1 X96.854 Y109.586 F5400.000
G1 X96.854 Y110.277 E2.15476 F900.000
G1 X96.403 Y110.348 E2.17388
G1 X95.697 Y110.414 E2.20358
G1 X95.254 Y110.429 E2.22210
G1 X95.254 Y109.586 E2.25739
G1 X96.794 Y109.586 E2.32186
G1 X96.654 Y109.932 F5400.000
G1 X98.732 Y109.355 F5400.000
G1 X98.732 Y108.932 E2.34398 F900.000
G1 X98.918 Y108.882 E2.35406
G1 X99.103 Y109.202 E2.37338
G1 X98.787 Y109.332 E2.39122
G1 E0.39122 F2400.00000
G92 E0
G1 Z0.750 F5400.000
G1 X96.477 Y107.109 F5400.000
G1 Z0.600 F5400.000
G1 E2.00000 F2400.00000
G1 X95.632 Y107.109 E2.04417 F900.000
G1 X95.632 Y106.113 E2.09618
G1 X96.477 Y106.113 E2.14036
G1 X96.477 Y107.049 E2.18923
G1 E0.18923 F2400.00000
G92 E0
G1 Z0.750 F5400.000
G1 X101.392 Y106.532 F5400.000
G1 Z0.600 F5400.000
G1 E2.00000 F2400.00000
G1 X101.392 Y105.423 E2.05796 F900.000
G1 X102.528 Y106.079 E2.12649
G1 X101.845 Y106.826 E2.17941
G1 X101.097 Y107.510 E2.23234
G1 X100.533 Y106.532 E2.29130
G1 X101.332 Y106.532 E2.33308
G1 X101.579 Y104.917 F5400.000
G1 X101.392 Y104.867 E2.34315 F900.000
G1 X101.392 Y104.532 E2.36064
G1 X101.801 Y104.532 E2.38198
G1 X101.609 Y104.865 E2.40205
G1 X99.661 Y106.718 F5400.000
G1 X99.151 Y107.013 E2.43283 F900.000
G1 X99.151 Y106.532 E2.45795
G1 X99.611 Y106.532 E2.48199
G1 X99.645 Y106.661 E2.48893
G1 X100.242 Y106.866 F5400.000
G1 X98.732 Y107.739 E2.58006 F900.000
G1 X98.732 Y106.113 E2.66497
G1 X100.974 Y106.113 E2.78209
G1 X100.974 Y104.113 E2.88658
