; generated by Slic3r 1.2.9 on 2017-06-09 at 10:55:54

; external perimeters extrusion width = 0.40mm
; perimeters extrusion width = 0.48mm
; infill extrusion width = 0.48mm
; solid infill extrusion width = 0.48mm
; top infill extrusion width = 0.48mm
; support material extrusion width = 0.40mm

M107
M190 S100 ; set bed temperature
M104 S240 ; set temperature
G28 ; home all axes
G1 Z5 F5000 ; lift nozzle

M109 S240 ; wait for temperature to be reached
G21 ; set units to millimeters
G90 ; use absolute coordinates
M82 ; use absolute distances for extrusion
G92 E0
G1 Z0.300 F5400.000
G1 E-2.00000 F2400.00000
G92 E0
G1 Z0.450 F5400.000
G1 X86.255 Y90.753 F5400.000
G1 Z0.300 F5400.000
G1 E2.00000 F2400.00000
G1 X88.005 Y89.295 E2.15217 F1800.000
G1 X90.148 Y88.525 E2.30434
G1 X92.121 Y88.489 E2.43614
G1 X109.618 Y90.839 E3.61556
G1 X111.789 Y91.531 E3.76773 F1800.000
G1 X113.590 Y92.925 E3.91990
G1 X114.803 Y94.853 E4.07207
G1 X115.284 Y97.316 E4.23972
G1 X115.283 Y105.527 E4.78822
G1 X114.885 Y107.769 E4.94039
G1 X113.742 Y109.740 E5.09256
G1 X111.992 Y111.198 E5.24473
G1 X108.747 Y112.060 E5.46902
G1 X91.253 Y112.060 E6.63772
G1 X89.010 Y111.663 E6.78989
G1 X87.039 Y110.521 E6.94207
G1 X85.581 Y108.771 E7.09424
G1 X84.717 Y105.526 E7.31856
G1 X84.716 Y94.967 E8.02397
G1 X85.113 Y92.724 E8.17614
G1 X86.225 Y90.805 E8.32430
G1 E6.32430 F2400.00000
G92 E0
G1 Z0.450 F5400.000
G1 X104.148 Y102.153 F5400.000
G1 Z0.300 F5400.000
G1 E2.00000 F2400.00000
G1 X103.590 Y102.153 E2.03726 F1800.000
G1 X103.526 Y101.915 E2.05374
G1 X107.377 Y99.692 E2.35080
G1 X107.376 Y104.153 E2.64886
G1 X104.148 Y104.153 E2.86454
G1 X104.148 Y102.213 E2.99414
G1 X99.377 Y102.153 F5400.000
G1 X99.377 Y104.153 E3.12775 F1800.000
G1 X92.624 Y104.153 E3.57888
G1 X92.623 Y97.342 E4.03389
G1 X100.543 Y101.915 E4.64486
G1 X100.479 Y102.153 E4.66134
G1 X99.437 Y102.153 E4.73097
G1 X99.912 Y102.689 F5400.000
G1 X99.912 Y104.689 E4.86459 F1800.000
G1 X92.088 Y104.689 E5.38728
G1 X92.087 Y96.414 E5.94005
G1 X102.035 Y102.158 E6.70740
G1 X107.913 Y98.764 E7.16085
G1 X107.912 Y104.689 E7.55668
G1 X103.612 Y104.689 E7.84391
G1 X103.612 Y102.689 E7.97752
G1 X99.972 Y102.689 E8.22066
G1 X100.448 Y103.224 F5400.000
G1 X100.448 Y105.224 E8.35428 F1800.000
G1 X91.553 Y105.224 E8.94852
G1 X91.551 Y95.487 E9.59906
G1 X102.035 Y101.539 E10.40775
G1 X108.449 Y97.836 E10.90253
G1 X108.447 Y105.224 E11.39612
G1 X103.076 Y105.224 E11.75491
G1 X103.076 Y103.224 E11.88852
G1 X100.508 Y103.224 E12.06010
G1 X100.048 Y103.224 F5400.000
G1 X100.770 Y102.103 F5400.000
G1 X101.905 Y102.408 E12.13863 F1800.000
G1 X102.164 Y102.408 F5400.000
G1 X103.299 Y102.103 E12.21716 F1800.000
G1 X104.737 Y103.832 F5400.000
G1 X104.469 Y103.564 E12.24352 F1800.000
G1 X104.469 Y102.773 E12.29869
G1 X105.527 Y103.832 E12.40308
G1 X106.318 Y103.832 E12.45825
G1 X104.469 Y101.983 E12.64065
G1 X104.788 Y101.510 E12.68040
G1 X107.055 Y103.777 E12.90402
G1 X107.055 Y102.986 E12.95918
G1 X105.289 Y101.221 E13.13335
G1 X105.791 Y100.931 E13.17374
G1 X107.055 Y102.195 E13.29847
G1 X107.055 Y101.405 E13.35363
G1 X106.292 Y100.642 E13.42891
G1 X106.793 Y100.352 E13.46930
G1 X107.055 Y100.614 E13.49513
G1 X99.387 Y101.828 F5400.000
G1 X99.088 Y101.530 E13.52555 F1800.000
G1 X99.055 Y102.314 E13.58218
G1 X97.154 Y100.413 E13.77615
G1 X95.219 Y99.296 F5400.000
G1 X99.055 Y103.132 E14.16745 F1800.000
G1 X98.937 Y103.832 E14.21861
G1 X93.284 Y98.178 E14.79520
G1 X92.945 Y98.657 E14.83750
G1 X98.119 Y103.832 E15.36528
G1 X97.302 Y103.832 E15.42426
G1 X92.945 Y99.475 E15.86861
G1 X92.945 Y100.293 E15.92760
G1 X96.484 Y103.832 E16.28853
G1 X95.666 Y103.832 E16.34751
G1 X92.945 Y101.111 E16.62503
G1 X92.945 Y101.929 E16.68401
G1 X94.848 Y103.832 E16.87811
G1 X94.030 Y103.832 E16.93709
G1 X92.945 Y102.746 E17.04776
G1 X92.946 Y103.564 E17.10675
G1 X93.213 Y103.832 E17.13401
G1 Z0.300 F5400.000
G1 Z0.600 F5400.000
G1 X103.773 Y102.528 F5400.000
G1 X102.086 Y102.528 E17.22211 F900.000
G1 X102.036 Y102.342 E17.23219
G1 X107.882 Y98.967 E17.58487
G1 X107.882 Y104.528 E17.87543
G1 X103.773 Y104.528 E18.09012
G1 X103.773 Y102.588 E18.19148
G1 X99.752 Y102.528 F5400.000
G1 X99.752 Y104.528 E18.29597 F900.000
G1 X92.118 Y104.528 E18.69480
G1 X92.118 Y96.617 E19.10811
G1 X102.033 Y102.342 E19.70627
G1 X101.983 Y102.528 E19.71634
G1 X99.812 Y102.528 E19.82977
G1 X100.171 Y102.947 F5400.000
G1 X100.171 Y104.947 E19.93426 F1200.000
G1 X91.699 Y104.947 E20.37686
G1 X91.699 Y95.892 E20.84996
G1 X102.035 Y101.859 E21.47349
G1 X108.301 Y98.241 E21.85154
G1 X108.301 Y104.947 E22.20189
G1 X103.354 Y104.947 E22.46035
G1 X103.354 Y102.947 E22.56484
G1 X100.231 Y102.947 E22.72800
G1 X100.548 Y103.324 F5400.000
G1 X100.548 Y105.324 E22.81172 F600.000
G1 X91.322 Y105.324 E23.19793
G1 X91.321 Y95.238 E23.62013
G1 X102.035 Y101.424 E24.13796
G1 X108.679 Y97.588 E24.45910
G1 X108.678 Y105.324 E24.78296
G1 X102.976 Y105.324 E25.02163
G1 X102.976 Y103.324 E25.10535
G1 X100.608 Y103.324 E25.20449
G1 X100.148 Y103.324 F5400.000
G1 X100.647 Y102.071 F5400.000
G1 X101.534 Y102.308 E25.25246 F1200.000
G1 X102.535 Y102.308 F5400.000
G1 X103.422 Y102.071 E25.30042 F1200.000
G1 X103.858 Y101.641 F5400.000
G1 X103.609 Y101.890 E25.31965 F1200.000
G1 X103.837 Y102.281 E25.34444
G1 X105.324 Y100.794 E25.45943
G1 X106.791 Y99.947 F5400.000
G1 X104.020 Y102.719 E25.67375 F1200.000
G1 X104.020 Y103.339 E25.70765
G1 X107.635 Y99.723 E25.98722
G1 X107.635 Y100.343 E26.02112
G1 X104.020 Y103.959 E26.30068
G1 X104.317 Y104.281 E26.32467
G1 X107.635 Y100.963 E26.58122
G1 X107.635 Y101.583 E26.61512
G1 X104.937 Y104.281 E26.82373
G1 X105.557 Y104.281 E26.85763
G1 X107.635 Y102.203 E27.01830
G1 X107.635 Y102.823 E27.05220
G1 X106.177 Y104.281 E27.16492
G1 X106.797 Y104.281 E27.19882
G1 X107.635 Y103.443 E27.26360
G1 X107.635 Y104.063 E27.29750
G1 X107.417 Y104.281 E27.31434
G1 X100.390 Y101.973 F5400.000
G1 X100.082 Y102.281 E27.33753 F1200.000
G1 X99.505 Y102.256 E27.36823
G1 X97.479 Y104.281 E27.52048
G1 X96.877 Y104.281 E27.55251
G1 X99.836 Y101.322 E27.77496
G1 X100.218 Y101.542 E27.79841
G1 X99.479 Y102.281 E27.85395
G1 X99.505 Y102.858 E27.88465
G1 X98.082 Y104.281 E27.99161
G1 X98.684 Y104.281 E28.02363
G1 X99.505 Y103.461 E28.08529
G1 X99.505 Y104.063 E28.11732
G1 X99.287 Y104.281 E28.13369
G1 X99.454 Y101.101 F5400.000
G1 X96.274 Y104.281 E28.37272 F1200.000
G1 X95.671 Y104.281 E28.40474
G1 X99.072 Y100.880 E28.66035
G1 X98.690 Y100.660 E28.68380
G1 X95.069 Y104.281 E28.95599
G1 X94.466 Y104.281 E28.98802
G1 X98.308 Y100.439 E29.27679
G1 X97.926 Y100.219 E29.30023
G1 X93.863 Y104.281 E29.60558
G1 X93.261 Y104.281 E29.63761
G1 X97.544 Y99.998 E29.95953
G1 X97.162 Y99.778 E29.98298
G1 X92.658 Y104.281 E30.32149
G1 X92.365 Y103.972 E30.34414
G1 X96.780 Y99.557 E30.67595
G1 X96.398 Y99.336 E30.69940
G1 X92.365 Y103.369 E31.00250
G1 X92.365 Y102.766 E31.03453
G1 X96.016 Y99.116 E31.30891
G1 X95.634 Y98.895 E31.33236
G1 X92.365 Y102.164 E31.57803
G1 X92.365 Y101.561 E31.61006
G1 X95.252 Y98.675 E31.82701
G1 X94.870 Y98.454 E31.85046
G1 X92.365 Y100.959 E32.03870
G1 X92.365 Y100.356 E32.07073
G1 X94.487 Y98.234 E32.23026
G1 X94.105 Y98.013 E32.25371
G1 X92.365 Y99.753 E32.38452
G1 X92.365 Y99.151 E32.41655
G1 X93.723 Y97.792 E32.51865
G1 X93.341 Y97.572 E32.54210
G1 X92.365 Y98.548 E32.61549
G1 X92.365 Y97.946 E32.64751
G1 X92.959 Y97.351 E32.69219
G1 X92.577 Y97.131 E32.71564
G1 X92.365 Y97.343 E32.73160
G1 Z0.900 F5400.000
G1 X103.773 Y102.528 F5400.000
G1 X102.086 Y102.528 E32.81970 F900.000
G1 X102.036 Y102.342 E32.82978
G1 X108.000 Y98.899 E33.18955
G1 X107.999 Y104.528 E33.48365
G1 X103.773 Y104.528 E33.70446
G1 X103.773 Y102.588 E33.80582
G1 X99.752 Y102.528 F5400.000
G1 X99.752 Y104.528 E33.91031 F900.000
G1 X92.001 Y104.528 E34.31525
G1 X92.000 Y96.550 E34.73210
G1 X102.033 Y102.342 E35.33736
G1 X101.983 Y102.528 E35.34743
G1 X99.812 Y102.528 E35.46086
G1 X100.171 Y102.947 F5400.000
G1 X100.171 Y104.947 E35.56535 F1200.000
G1 X91.582 Y104.947 E36.01406
G1 X91.581 Y95.824 E36.49070
G1 X102.035 Y101.859 E37.12133
G1 X108.419 Y98.173 E37.50648
G1 X108.418 Y104.947 E37.86038
G1 X103.354 Y104.947 E38.12495
G1 X103.354 Y102.947 E38.22944
G1 X100.231 Y102.947 E38.39259
G1 X100.548 Y103.324 F5400.000
G1 X100.548 Y105.324 E38.47631 F600.000
G1 X91.205 Y105.324 E38.86742
G1 X91.204 Y95.171 E39.29246
G1 X102.035 Y101.424 E39.81598
G1 X108.796 Y97.520 E40.14281
G1 X108.795 Y105.324 E40.46951
G1 X102.976 Y105.324 E40.71308
G1 X102.976 Y103.324 E40.79680
G1 X100.608 Y103.324 E40.89594
G1 X100.148 Y103.324 F5400.000
G1 X100.647 Y102.071 F5400.000
G1 X101.534 Y102.308 E40.94391 F1200.000
G1 X102.535 Y102.308 F5400.000
G1 X103.422 Y102.071 E40.99187 F1200.000
G1 X103.629 Y101.787 F5400.000
G1 X106.123 Y104.281 E41.18743 F1200.000
G1 X106.752 Y104.281 E41.22228
G1 X103.954 Y101.483 E41.44167
G1 X104.352 Y101.253 E41.46718
G1 X107.380 Y104.281 E41.70460
G1 X107.752 Y104.024 E41.72965
G1 X104.751 Y101.023 E41.96496
G1 X105.149 Y100.793 E41.99047
G1 X107.752 Y103.396 E42.19454
G1 X107.752 Y102.767 E42.22938
G1 X105.548 Y100.563 E42.40221
G1 X105.946 Y100.333 E42.42773
G1 X107.752 Y102.139 E42.56932
G1 X107.752 Y101.510 E42.60416
G1 X106.345 Y100.102 E42.71452
G1 X106.743 Y99.872 E42.74004
G1 X107.752 Y100.882 E42.81916
G1 X107.752 Y100.253 E42.85400
G1 X107.142 Y99.642 E42.90189
G1 X107.540 Y99.412 E42.92740
G1 X107.753 Y99.625 E42.94405
G1 X104.020 Y102.806 F5400.000
G1 X105.495 Y104.281 E43.05968 F1200.000
G1 X104.866 Y104.281 E43.09453
G1 X104.020 Y103.435 E43.16089
G1 X104.020 Y104.063 E43.19573
G1 X104.237 Y104.281 E43.21280
G1 X100.460 Y101.890 F5400.000
G1 X100.212 Y101.641 E43.23175 F1200.000
G1 X100.241 Y102.281 E43.26629
G1 X98.766 Y100.806 E43.37866
G1 X97.321 Y99.972 F5400.000
G1 X99.630 Y102.281 E43.55463 F1200.000
G1 X99.505 Y102.767 E43.58166
G1 X95.875 Y99.137 E43.85824
G1 X94.430 Y98.303 F5400.000
G1 X99.505 Y103.378 E44.24496 F1200.000
G1 X99.505 Y103.989 E44.27788
G1 X92.984 Y97.468 E44.77474
G1 X92.247 Y97.342 E44.81502
G1 X99.186 Y104.281 E45.34375
G1 X98.575 Y104.281 E45.37667
G1 X92.247 Y97.953 E45.85884
G1 X92.248 Y98.564 E45.89177
G1 X97.964 Y104.281 E46.32738
G1 X97.353 Y104.281 E46.36030
G1 X92.248 Y99.175 E46.74936
G1 X92.248 Y99.786 E46.78228
G1 X96.742 Y104.281 E47.12478
G1 X96.132 Y104.281 E47.15770
G1 X92.248 Y100.397 E47.45364
G1 X92.248 Y101.008 E47.48656
G1 X95.521 Y104.281 E47.73594
G1 X94.910 Y104.281 E47.76886
G1 X92.248 Y101.619 E47.97169
G1 X92.248 Y102.230 E48.00461
G1 X94.299 Y104.281 E48.16087
G1 X93.688 Y104.281 E48.19379
G1 X92.248 Y102.841 E48.30350
G1 X92.248 Y103.452 E48.33642
G1 X93.077 Y104.281 E48.39957
G1 X92.466 Y104.281 E48.43249
G1 X92.248 Y104.063 E48.44908
M106 S209.1
G1 Z1.200 F5400.000
G1 X103.773 Y102.528 F5400.000
G1 X102.086 Y102.528 E48.53718 F900.000
G1 X102.036 Y102.342 E48.54726
G1 X108.105 Y98.838 E48.91339
G1 X108.104 Y104.528 E49.21068
G1 X103.773 Y104.528 E49.43698
G1 X103.773 Y102.588 E49.53833
G1 X99.752 Y102.528 F5400.000
G1 X99.752 Y104.528 E49.64282 F900.000
G1 X91.896 Y104.528 E50.05325
G1 X91.895 Y96.489 E50.47328
G1 X102.033 Y102.342 E51.08490
G1 X101.983 Y102.528 E51.09498
G1 X99.812 Y102.528 E51.20841
G1 X100.171 Y102.947 F5400.000
G1 X100.171 Y104.947 E51.31290 F1200.000
G1 X91.477 Y104.947 E51.76709
G1 X91.476 Y95.763 E52.24692
G1 X102.035 Y101.859 E52.88391
G1 X108.524 Y98.112 E53.27542
G1 X108.523 Y104.947 E53.63251
G1 X103.354 Y104.947 E53.90257
G1 X103.354 Y102.947 E54.00706
G1 X100.231 Y102.947 E54.17021
G1 X100.548 Y103.324 F5400.000
G1 X100.548 Y105.324 E54.25393 F600.000
G1 X91.100 Y105.324 E54.64942
G1 X91.098 Y95.110 E55.07702
G1 X102.035 Y101.424 E55.60564
G1 X108.902 Y97.459 E55.93758
G1 X108.900 Y105.324 E56.26683
G1 X102.976 Y105.324 E56.51479
G1 X102.976 Y103.324 E56.59851
G1 X100.608 Y103.324 E56.69765
G1 X100.148 Y103.324 F5400.000
G1 X100.647 Y102.071 F5400.000
G1 X101.534 Y102.308 E56.74562 F1200.000
G1 X102.535 Y102.308 F5400.000
G1 X103.422 Y102.071 E56.79358 F1200.000
G1 X103.858 Y101.641 F5400.000
G1 X103.609 Y101.890 E56.81350 F1200.000
G1 X103.860 Y102.281 E56.83983
G1 X105.377 Y100.764 E56.96137
G1 X106.896 Y99.886 F5400.000
G1 X104.020 Y102.763 E57.19178 F1200.000
G1 X104.020 Y103.405 E57.22815
G1 X107.858 Y99.567 E57.53558
G1 X107.858 Y100.209 E57.57196
G1 X104.020 Y104.048 E57.87938
G1 X104.428 Y104.281 E57.90603
G1 X107.858 Y100.852 E58.18071
G1 X107.857 Y101.494 E58.21709
G1 X105.070 Y104.281 E58.44032
G1 X105.713 Y104.281 E58.47669
G1 X107.857 Y102.136 E58.64847
G1 X107.857 Y102.779 E58.68485
G1 X106.355 Y104.281 E58.80519
G1 X106.997 Y104.281 E58.84156
G1 X107.857 Y103.421 E58.91045
G1 X107.857 Y104.063 E58.94683
G1 X107.639 Y104.281 E58.96426
G1 X100.402 Y101.931 F5400.000
G1 X100.051 Y102.281 E58.99127 F1200.000
G1 X99.505 Y102.210 F5400.000
G1 X97.433 Y104.281 E59.15092 F1200.000
G1 X99.287 Y104.281 F5400.000
G1 X99.505 Y104.063 E59.16770 F1200.000
G1 X99.505 Y103.446 E59.20137
G1 X98.669 Y104.281 E59.26577
G1 X98.051 Y104.281 E59.29945
G1 X99.505 Y102.828 E59.41147
G1 X99.433 Y102.281 E59.44151
G1 X100.189 Y101.525 E59.49975
G1 X99.797 Y101.299 E59.52441
G1 X96.815 Y104.281 E59.75423
G1 X96.197 Y104.281 E59.78790
G1 X99.406 Y101.073 E60.03515
G1 X99.014 Y100.847 E60.05980
G1 X95.580 Y104.281 E60.32448
G1 X94.962 Y104.281 E60.35816
G1 X98.622 Y100.621 E60.64027
G1 X98.230 Y100.395 E60.66492
G1 X94.344 Y104.281 E60.96447
G1 X93.726 Y104.281 E60.99814
G1 X97.839 Y100.168 E61.31512
G1 X97.447 Y99.942 E61.33977
G1 X93.108 Y104.281 E61.67417
G1 X92.490 Y104.281 E61.70785
G1 X97.055 Y99.716 E62.05969
G1 X96.663 Y99.490 E62.08434
G1 X92.143 Y104.010 E62.43272
G1 X92.143 Y103.392 E62.46639
G1 X96.272 Y99.264 E62.78458
G1 X95.880 Y99.037 E62.80923
G1 X92.143 Y102.775 E63.09725
G1 X92.143 Y102.157 E63.13092
G1 X95.488 Y98.811 E63.38875
G1 X95.096 Y98.585 E63.41340
G1 X92.143 Y101.539 E63.64105
G1 X92.143 Y100.921 E63.67471
G1 X94.705 Y98.359 E63.87218
G1 X94.313 Y98.133 E63.89683
G1 X92.142 Y100.303 E64.06411
G1 X92.142 Y99.685 E64.09778
G1 X93.921 Y97.907 E64.23488
G1 X93.529 Y97.680 E64.25953
G1 X92.142 Y99.068 E64.36644
G1 X92.142 Y98.450 E64.40011
G1 X93.138 Y97.454 E64.47685
G1 X92.746 Y97.228 E64.50150
G1 X92.142 Y97.832 E64.54805
G1 X92.142 Y97.214 E64.58171
G1 X92.354 Y97.002 E64.59808
G1 Z1.500 F5400.000
G1 X103.773 Y102.528 F5400.000
G1 X102.086 Y102.528 E64.68619 F900.000
G1 X102.036 Y102.342 E64.69626
G1 X108.200 Y98.783 E65.06813
G1 X108.200 Y104.528 E65.36829
G1 X103.773 Y104.528 E65.59958
G1 X103.773 Y102.588 E65.70094
G1 X99.752 Y102.528 F5400.000
G1 X99.752 Y104.528 E65.80543 F900.000
G1 X91.800 Y104.528 E66.22086
G1 X91.800 Y96.434 E66.64376
G1 X102.033 Y102.342 E67.26111
G1 X101.983 Y102.528 E67.27119
G1 X99.812 Y102.528 E67.38461
G1 X100.171 Y102.947 F5400.000
G1 X100.171 Y104.947 E67.48910 F1200.000
G1 X91.381 Y104.947 E67.94830
G1 X91.381 Y95.708 E68.43099
G1 X102.035 Y101.859 E69.07372
G1 X108.619 Y98.058 E69.47096
G1 X108.619 Y104.947 E69.83091
G1 X103.354 Y104.947 E70.10597
G1 X103.354 Y102.947 E70.21046
G1 X100.231 Y102.947 E70.37361
G1 X100.548 Y103.324 F5400.000
G1 X100.548 Y105.324 E70.45733 F600.000
G1 X91.004 Y105.324 E70.85684
G1 X91.003 Y95.055 E71.28673
G1 X102.035 Y101.424 E71.81994
G1 X108.997 Y97.404 E72.15646
G1 X108.996 Y105.324 E72.48801
G1 X102.976 Y105.324 E72.73998
G1 X102.976 Y103.324 E72.82370
G1 X100.608 Y103.324 E72.92284
G1 X100.148 Y103.324 F5400.000
G1 X100.647 Y102.071 F5400.000
G1 X101.534 Y102.308 E72.97080 F1200.000
G1 X102.535 Y102.308 F5400.000
G1 X103.422 Y102.071 E73.01877 F1200.000
G1 X104.020 Y104.063 F5400.000
G1 X104.237 Y104.281 E73.03523 F1200.000
G1 X104.844 Y104.281 E73.06765
G1 X104.020 Y103.457 E73.12997
G1 X104.020 Y102.851 E73.16239
G1 X105.450 Y104.281 E73.27055
G1 X106.056 Y104.281 E73.30297
G1 X103.653 Y101.878 E73.48467
G1 X103.897 Y101.516 E73.50803
G1 X106.663 Y104.281 E73.71717
G1 X107.269 Y104.281 E73.74959
G1 X104.281 Y101.294 E73.97550
G1 X104.666 Y101.072 E73.99923
G1 X107.875 Y104.281 E74.24193
G1 X107.953 Y103.752 E74.27051
G1 X105.050 Y100.850 E74.49000
