; generated by Slic3r 1.2.9 on 2017-06-09 at 10:54:42

; external perimeters extrusion width = 0.40mm
; perimeters extrusion width = 0.48mm
; infill extrusion width = 0.48mm
; solid infill extrusion width = 0.48mm
; top infill extrusion width = 0.48mm
; support material extrusion width = 0.40mm

M107
M190 S100 ; set bed temperature
M104 S240 ; set temperature
G28 ; home all axes
G1 Z5 F5000 ; lift nozzle

M109 S240 ; wait for temperature to be reached
G21 ; set units to millimeters
G90 ; use absolute coordinates
M82 ; use absolute distances for extrusion
G92 E0
G1 Z0.300 F5400.000
G1 E-2.00000 F2400.00000
G92 E0
G1 Z0.450 F5400.000
G1 X87.070 Y87.284 F5400.000
G1 Z0.300 F5400.000
G1 E2.00000 F2400.00000
G1 X87.510 Y86.851 E2.04123 F1800.000
G1 X88.236 Y86.199 E2.10645
G1 X88.854 Y85.695 E2.15968
G1 X89.903 Y84.936 E2.24620
G1 X90.667 Y84.451 E2.30667
G1 X91.368 Y84.051 E2.36057
G1 X92.077 Y83.687 E2.41383
G1 X92.967 Y83.285 E2.47903
G1 X93.708 Y82.992 E2.53227
G1 X94.938 Y82.587 E2.61878
G1 X95.813 Y82.355 E2.67925
G1 X96.602 Y82.186 E2.73315
G1 X97.388 Y82.054 E2.78642
G1 X98.357 Y81.940 E2.85161
G1 X99.152 Y81.885 E2.90484
G1 X100.447 Y81.871 E2.99136
G1 X101.540 Y81.931 E3.06451 F1800.000
G1 X102.154 Y81.993 E3.10575
G1 X103.120 Y82.136 E3.17096
G1 X103.726 Y82.252 E3.21216
G1 X104.502 Y82.432 E3.26540
G1 X105.270 Y82.647 E3.31867
G1 X106.195 Y82.957 E3.38386
G1 X106.772 Y83.177 E3.42512
G1 X107.505 Y83.491 E3.47835
G1 X108.223 Y83.836 E3.53162
G1 X108.925 Y84.213 E3.58480
G1 X109.610 Y84.620 E3.63803
G1 X110.276 Y85.057 E3.69125
G1 X110.923 Y85.523 E3.74450
G1 X111.685 Y86.132 E3.80970
G1 X112.151 Y86.537 E3.85093
G1 X112.731 Y87.084 E3.90419
G1 X113.286 Y87.656 E3.95740
G1 X113.815 Y88.251 E4.01064
G1 X114.317 Y88.869 E4.06384
G1 X114.792 Y89.508 E4.11705
G1 X115.239 Y90.168 E4.17026
G1 X115.656 Y90.847 E4.22348
G1 X116.043 Y91.544 E4.27680
G1 X116.399 Y92.257 E4.32998
G1 X116.724 Y92.985 E4.38324
G1 X117.016 Y93.726 E4.43647
G1 X117.275 Y94.479 E4.48966
G1 X117.500 Y95.243 E4.54288
G1 X117.693 Y96.017 E4.59614
G1 X117.851 Y96.799 E4.64944
G1 X117.974 Y97.586 E4.70267
G1 X118.063 Y98.377 E4.75585
G1 X118.117 Y99.172 E4.80909
G1 X118.135 Y99.968 E4.86229
G1 X118.119 Y100.766 E4.91557
G1 X118.068 Y101.560 E4.96877
G1 X117.982 Y102.353 E5.02202
G1 X117.881 Y103.023 E5.06729
G1 X117.666 Y104.096 E5.14042
G1 X117.517 Y104.696 E5.18167
G1 X117.238 Y105.631 E5.24688
G1 X117.037 Y106.215 E5.28816
G1 X116.748 Y106.956 E5.34127
G1 X116.427 Y107.685 E5.39451
G1 X115.988 Y108.558 E5.45978
G1 X115.688 Y109.098 E5.50106
G1 X115.274 Y109.778 E5.55425
G1 X114.829 Y110.440 E5.60750
G1 X114.357 Y111.081 E5.66072
G1 X113.856 Y111.702 E5.71400
G1 X113.329 Y112.298 E5.76719
G1 X112.776 Y112.872 E5.82041
G1 X112.198 Y113.420 E5.87362
G1 X111.597 Y113.943 E5.92682
G1 X110.973 Y114.439 E5.98010
G1 X110.328 Y114.908 E6.03334
G1 X109.663 Y115.347 E6.08657
G1 X108.980 Y115.757 E6.13981
G1 X108.279 Y116.136 E6.19303
G1 X107.562 Y116.484 E6.24630
G1 X106.830 Y116.800 E6.29955
G1 X106.087 Y117.084 E6.35271
G1 X105.330 Y117.335 E6.40595
G1 X104.564 Y117.552 E6.45915
G1 X103.788 Y117.736 E6.51240
G1 X103.005 Y117.885 E6.56567
G1 X102.217 Y118.000 E6.61888
G1 X101.424 Y118.080 E6.67210
G1 X100.748 Y118.119 E6.71738
G1 X99.653 Y118.132 E6.79051
G1 X99.036 Y118.110 E6.83177
G1 X98.063 Y118.031 E6.89697
G1 X97.451 Y117.956 E6.93817
G1 X96.665 Y117.827 E6.99138
G1 X95.884 Y117.663 E7.04470
G1 X94.940 Y117.415 E7.10988
G1 X94.351 Y117.233 E7.15110
G1 X93.599 Y116.969 E7.20431
G1 X92.859 Y116.671 E7.25759
G1 X92.134 Y116.341 E7.31082
G1 X91.424 Y115.980 E7.36403
G1 X90.731 Y115.588 E7.41721
G1 X90.055 Y115.166 E7.47049
G1 X89.398 Y114.714 E7.52375
G1 X88.762 Y114.234 E7.57697
G1 X88.148 Y113.727 E7.63017
G1 X87.556 Y113.193 E7.68344
G1 X86.989 Y112.634 E7.73662
G1 X86.447 Y112.050 E7.78985
G1 X85.930 Y111.443 E7.84315
G1 X85.441 Y110.814 E7.89634
G1 X84.980 Y110.165 E7.94953
G1 X84.548 Y109.495 E8.00277
G1 X84.146 Y108.807 E8.05602
G1 X83.775 Y108.102 E8.10923
G1 X83.435 Y107.382 E8.16246
G1 X83.126 Y106.647 E8.21572
G1 X82.851 Y105.899 E8.26893
G1 X82.608 Y105.141 E8.32210
G1 X82.399 Y104.371 E8.37539
G1 X82.224 Y103.593 E8.42865
G1 X82.083 Y102.810 E8.48185
G1 X81.977 Y102.020 E8.53508
G1 X81.906 Y101.227 E8.58827
G1 X81.869 Y100.430 E8.64154
G1 X81.868 Y99.634 E8.69477
G1 X81.902 Y98.838 E8.74795
G1 X81.959 Y98.162 E8.79330
G1 X82.103 Y97.077 E8.86644
G1 X82.211 Y96.469 E8.90765
G1 X82.428 Y95.517 E8.97290
G1 X82.590 Y94.921 E9.01413
G1 X82.830 Y94.162 E9.06736
G1 X83.103 Y93.413 E9.12059
G1 X83.483 Y92.514 E9.18580
G1 X83.746 Y91.956 E9.22703
G1 X84.115 Y91.249 E9.28028
G1 X84.515 Y90.560 E9.33351
G1 X84.945 Y89.889 E9.38674
G1 X85.403 Y89.237 E9.43998
G1 X85.890 Y88.607 E9.49320
G1 X86.404 Y87.998 E9.54643
G1 X87.028 Y87.327 E9.60763
G1 E7.60763 F2400.00000
G92 E0
G1 Z0.450 F5400.000
G1 X105.628 Y109.348 F5400.000
G1 Z0.300 F5400.000
G1 E2.00000 F2400.00000
G1 X104.866 Y108.029 E2.10178 F1800.000
G1 X104.520 Y108.229 E2.12850
G1 X105.282 Y109.549 E2.23030
G1 X104.548 Y109.906 E2.28484
G1 X103.637 Y110.276 E2.35047
G1 X103.161 Y110.432 E2.38397
G1 X102.216 Y110.673 E2.44912
G1 X101.229 Y110.831 E2.51591
G1 X100.242 Y110.898 E2.58199
G1 X99.267 Y110.876 E2.64714
G1 X98.771 Y110.831 E2.68042
G1 X98.267 Y110.762 E2.71440
G1 X97.312 Y110.564 E2.77955
G1 X96.355 Y110.273 E2.84634
G1 X95.452 Y109.906 E2.91149
G1 X94.718 Y109.549 E2.96602
G1 X95.480 Y108.229 E3.06782
G1 X95.134 Y108.029 E3.09455
G1 X94.368 Y109.354 E3.19678
G1 X93.348 Y108.635 E3.28020
G1 X92.623 Y108.025 E3.34349
G1 X91.978 Y107.379 E3.40446
G1 X91.657 Y107.015 E3.43689
G1 X91.095 Y106.286 E3.49835
G1 X90.652 Y105.628 E3.55137
G1 X91.971 Y104.867 E3.65315
G1 X91.771 Y104.520 E3.67987
G1 X90.451 Y105.282 E3.78167
G1 X90.094 Y104.548 E3.83621
G1 X89.725 Y103.638 E3.90184
G1 X89.568 Y103.161 E3.93534
G1 X89.327 Y102.216 E4.00049
G1 X89.169 Y101.229 E4.06728
G1 X89.102 Y100.242 E4.13336
G1 X89.124 Y99.267 E4.19851
G1 X89.169 Y98.771 E4.23178
G1 X89.238 Y98.267 E4.26577
G1 X89.436 Y97.312 E4.33092
G1 X89.727 Y96.356 E4.39771
G1 X90.094 Y95.452 E4.46286
G1 X90.451 Y94.718 E4.51739
G1 X91.771 Y95.480 E4.61919
G1 X91.971 Y95.134 E4.64591
G1 X90.646 Y94.369 E4.74815
G1 X91.365 Y93.348 E4.83157
G1 X91.975 Y92.623 E4.89486
G1 X92.621 Y91.978 E4.95582
G1 X92.985 Y91.657 E4.98825
G1 X93.714 Y91.096 E5.04972
G1 X94.372 Y90.652 E5.10273
G1 X95.134 Y91.972 E5.20451
G1 X95.480 Y91.772 E5.23124
G1 X94.718 Y90.452 E5.33304
G1 X95.452 Y90.094 E5.38758
G1 X96.362 Y89.725 E5.45321
G1 X96.839 Y89.569 E5.48670
G1 X97.784 Y89.328 E5.55186
G1 X98.771 Y89.170 E5.61864
G1 X99.758 Y89.103 E5.68473
G1 X100.733 Y89.125 E5.74987
G1 X101.229 Y89.170 E5.78315
G1 X101.733 Y89.239 E5.81713
G1 X102.688 Y89.437 E5.88229
G1 X103.644 Y89.727 E5.94907
G1 X104.548 Y90.094 E6.01422
G1 X105.282 Y90.452 E6.06876
G1 X104.520 Y91.772 E6.17056
G1 X104.866 Y91.972 E6.19728
G1 X105.631 Y90.646 E6.29951
G1 X106.652 Y91.365 E6.38293
G1 X107.377 Y91.976 E6.44623
G1 X108.022 Y92.621 E6.50719
G1 X108.343 Y92.985 E6.53962
G1 X108.905 Y93.714 E6.60108
G1 X109.348 Y94.372 E6.65410
G1 X108.029 Y95.134 E6.75588
G1 X108.229 Y95.480 E6.78260
G1 X109.548 Y94.718 E6.88440
G1 X109.906 Y95.452 E6.93894
G1 X110.275 Y96.363 E7.00457
G1 X110.432 Y96.839 E7.03807
G1 X110.672 Y97.784 E7.10322
G1 X110.831 Y98.771 E7.17001
G1 X110.897 Y99.758 E7.23609
G1 X110.875 Y100.733 E7.30124
G1 X110.830 Y101.229 E7.33451
G1 X110.761 Y101.733 E7.36850
G1 X110.564 Y102.688 E7.43365
G1 X110.273 Y103.645 E7.50043
G1 X109.906 Y104.548 E7.56558
G1 X109.548 Y105.282 E7.62012
G1 X108.229 Y104.520 E7.72192
G1 X108.029 Y104.867 E7.74864
G1 X109.354 Y105.632 E7.85088
G1 X108.635 Y106.653 E7.93430
G1 X108.024 Y107.377 E7.99759
G1 X107.379 Y108.022 E8.05855
G1 X107.015 Y108.343 E8.09098
G1 X106.286 Y108.905 E8.15244
G1 X105.678 Y109.315 E8.20145
G1 X105.286 Y109.556 F5400.000
G1 X105.816 Y109.679 F5400.000
G1 X105.137 Y110.065 E8.25358 F1800.000
G1 X104.234 Y110.477 E8.31989
G1 X103.295 Y110.809 E8.38643
G1 X102.824 Y110.942 E8.41916
G1 X101.860 Y111.146 E8.48497
G1 X100.864 Y111.267 E8.55201
G1 X99.872 Y111.299 E8.61832
G1 X98.877 Y111.244 E8.68486
G1 X98.391 Y111.185 E8.71759
G1 X97.423 Y111.002 E8.78340
G1 X96.457 Y110.730 E8.85044
G1 X95.529 Y110.378 E8.91675
G1 X94.633 Y109.944 E8.98328
G1 X94.207 Y109.702 E9.01601
G1 X93.384 Y109.160 E9.08182
G1 X92.597 Y108.537 E9.14886
G1 X91.876 Y107.855 E9.21517
G1 X91.216 Y107.109 E9.28171
G1 X90.916 Y106.722 E9.31444
G1 X90.366 Y105.905 E9.38025
G1 X89.880 Y105.027 E9.44729
G1 X89.478 Y104.119 E9.51360
G1 X89.156 Y103.177 E9.58013
G1 X89.028 Y102.704 E9.61286
G1 X88.835 Y101.738 E9.67868
G1 X88.724 Y100.740 E9.74572
G1 X88.703 Y99.748 E9.81203
G1 X88.769 Y98.754 E9.87856
G1 X88.834 Y98.269 E9.91129
G1 X89.027 Y97.303 E9.97710
G1 X89.310 Y96.340 E10.04414
G1 X89.672 Y95.416 E10.11045
G1 X90.116 Y94.524 E10.17699
G1 X90.362 Y94.101 E10.20972
G1 X90.913 Y93.284 E10.27553
G1 X91.545 Y92.504 E10.34257
G1 X92.235 Y91.791 E10.40888
G1 X92.988 Y91.139 E10.47541
G1 X93.379 Y90.843 E10.50814
G1 X94.202 Y90.302 E10.57395
G1 X95.085 Y89.826 E10.64099
G1 X95.997 Y89.433 E10.70730
G1 X96.940 Y89.123 E10.77362
G1 X97.906 Y88.896 E10.83993
G1 X98.892 Y88.755 E10.90647
G1 X99.380 Y88.717 E10.93920
G1 X100.365 Y88.707 E11.00501
G1 X101.366 Y88.783 E11.07205
G1 X102.345 Y88.947 E11.13836 F1800.000
G1 X103.306 Y89.195 E11.20467
G1 X104.242 Y89.527 E11.27099
G1 X105.147 Y89.941 E11.33753
G1 X105.579 Y90.174 E11.37025
G1 X106.413 Y90.697 E11.43607
G1 X107.213 Y91.303 E11.50311
G1 X107.949 Y91.969 E11.56942
G1 X108.625 Y92.700 E11.63595
G1 X108.934 Y93.081 E11.66868
G1 X109.502 Y93.886 E11.73449
G1 X110.007 Y94.753 E11.80153
G1 X110.429 Y95.651 E11.86784
G1 X110.772 Y96.586 E11.93438
G1 X110.910 Y97.056 E11.96711
G1 X111.124 Y98.018 E12.03292
G1 X111.256 Y99.013 E12.09996
G1 X111.300 Y100.004 E12.16627
G1 X111.255 Y100.999 E12.23280
G1 X111.202 Y101.486 E12.26553
G1 X111.029 Y102.456 E12.33134
G1 X110.768 Y103.425 E12.39838
G1 X110.426 Y104.357 E12.46469
G1 X110.002 Y105.258 E12.53123
G1 X109.765 Y105.687 E12.56396
G1 X109.232 Y106.515 E12.62977
G1 X108.618 Y107.309 E12.69681
G1 X107.943 Y108.037 E12.76312
G1 X107.205 Y108.705 E12.82965
G1 X106.821 Y109.009 E12.86239
G1 X105.868 Y109.650 E12.93906
G1 X105.466 Y109.485 F5400.000
G1 Z0.300 F5400.000
G1 E10.93906 F2400.00000
G92 E0
G1 Z0.450 F5400.000
G1 X105.827 Y104.289 F5400.000
G1 Z0.300 F5400.000
G1 E2.00000 F2400.00000
G1 X107.101 Y101.747 E2.18989 F1800.000
G1 E0.18989 F2400.00000
G92 E0
G1 Z0.450 F5400.000
G1 X107.302 Y98.956 F5400.000
G1 Z0.300 F5400.000
G1 E2.00000 F2400.00000
G1 X103.502 Y106.538 E2.56657 F1800.000
G1 X102.027 Y107.089 E2.67170
G1 X106.121 Y98.920 E3.28210
G1 X104.923 Y98.920 E3.36215
G1 X100.703 Y107.340 E3.99135
G1 X99.486 Y107.378 E4.07269
G1 X103.725 Y98.920 E4.70467
G1 X102.527 Y98.920 E4.78472
G1 X98.982 Y105.992 E5.31319
G1 X98.982 Y103.602 E5.47291
G1 X100.145 Y101.282 E5.64626
G1 E3.64626 F2400.00000
G92 E0
G1 Z0.450 F5400.000
G1 X101.132 Y99.312 F5400.000
G1 Z0.300 F5400.000
G1 E2.00000 F2400.00000
G1 X101.328 Y98.920 E2.02925 F1800.000
G1 E0.02925 F2400.00000
G92 E0
G1 Z0.450 F5400.000
G1 X97.971 Y98.448 F5400.000
G1 Z0.300 F5400.000
G1 E2.00000 F2400.00000
G1 X98.366 Y97.658 E2.05897 F1800.000
G1 X96.772 Y98.448 E2.17778
G1 X98.366 Y95.268 E2.41541
G1 X98.353 Y92.903 E2.57342
G1 X95.574 Y98.448 E2.98779
G1 X94.376 Y98.448 E3.06784
G1 X96.980 Y93.252 E3.45613
G1 X95.160 Y94.492 E3.60329
G1 X93.178 Y98.448 E3.89885
G1 X92.743 Y99.314 F5400.000
G1 X92.941 Y98.920 E3.92827 F1800.000
G1 X94.139 Y98.920 E4.00832
G1 X92.783 Y101.625 E4.21045
G1 X93.278 Y103.028 E4.30984
G1 X95.337 Y98.920 E4.61681
G1 X96.535 Y98.920 E4.69686
G1 X93.938 Y104.102 E5.08410
G1 X94.633 Y105.108 E5.16572
G1 X97.734 Y98.920 E5.62807
G1 X98.366 Y100.049 E5.71452
G1 X95.440 Y105.887 E6.15075
G1 X96.317 Y106.528 F5400.000
G1 X98.366 Y102.440 E6.45626 F1800.000
G1 X98.366 Y104.831 E6.61598
G1 X97.295 Y106.968 E6.77567
G1 E4.77567 F2400.00000
G92 E0
G1 Z0.450 F5400.000
G1 X106.358 Y98.448 F5400.000
G1 Z0.300 F5400.000
G1 E2.00000 F2400.00000
G1 X106.870 Y97.428 E2.07623 F1800.000
G1 X106.293 Y96.186 E2.16764
G1 X105.160 Y98.448 E2.33661
G1 X103.962 Y98.448 E2.41666
G1 X105.645 Y95.090 E2.66760
G1 X104.782 Y94.421 E2.74053
G1 X102.764 Y98.448 E3.04140
G1 X101.565 Y98.448 E3.12145
G1 X103.893 Y93.803 E3.46854
G1 X102.984 Y93.226 E3.54047
G1 X100.367 Y98.448 E3.93064
G1 X99.169 Y98.448 E4.01069
G1 X101.954 Y92.890 E4.42601
G1 X100.873 Y92.656 E4.49991
G1 X98.982 Y96.429 E4.78187
G1 X98.982 Y94.039 E4.94159
G1 X99.655 Y92.695 E5.04198
G1 Z0.600 F5400.000
G1 E3.04198 F2400.00000
G92 E0
G1 Z0.750 F5400.000
G1 X103.039 Y93.483 F5400.000
G1 Z0.600 F5400.000
G1 E2.00000 F2400.00000
G1 X102.624 Y93.193 E2.02120 F1200.000
G1 X102.624 Y94.734 E2.08571
G1 X104.724 Y94.734 E2.17362
G1 X104.724 Y94.613 E2.17867
G1 X104.619 Y94.488 E2.18550
G1 X104.676 Y94.367 E2.19110
G1 X104.416 Y94.246 E2.20312
G1 X104.247 Y94.045 E2.21409
G1 X104.153 Y94.123 E2.21921
G1 X103.570 Y93.851 E2.24616
G1 X103.626 Y93.641 E2.25529
G1 X103.039 Y93.483 E2.28076
G1 X103.082 Y93.842 F5400.000
G1 X102.960 Y93.809 E2.28604 F1200.000
G1 X102.960 Y94.053 E2.29624
G1 X103.082 Y93.842 E2.30644
G1 E0.30644 F2400.00000
G92 E0
G1 Z0.750 F5400.000
G1 X104.388 Y103.185 F5400.000
G1 Z0.600 F5400.000
G1 E2.00000 F2400.00000
G1 X104.388 Y102.970 E2.00902 F1200.000
G1 X102.960 Y102.970 E2.06883
G1 X102.960 Y104.398 E2.12863
G1 X103.535 Y104.398 E2.15273
G1 X104.236 Y103.185 E2.21138
G1 X104.388 Y103.185 E2.21777
G1 X104.724 Y104.734 F5400.000
G1 X104.724 Y102.634 E2.30567 F1200.000
G1 X102.624 Y102.634 E2.39358
G1 X102.624 Y104.734 E2.48149
G1 X104.724 Y104.734 E2.56939
G1 E0.56939 F2400.00000
G92 E0
G1 Z0.750 F5400.000
G1 X94.724 Y104.734 F5400.000
G1 Z0.600 F5400.000
G1 E2.00000 F2400.00000
G1 X94.724 Y102.634 E2.08791 F1200.000
G1 X93.199 Y102.634 E2.15174
G1 X93.476 Y103.030 E2.17198
G1 X93.631 Y103.615 E2.19731
G1 X93.845 Y103.558 E2.20661
G1 X94.060 Y104.017 E2.22781
G1 X93.978 Y104.107 E2.23286
G1 X94.192 Y104.301 E2.24493
G1 X94.386 Y104.717 E2.26414
G1 X94.410 Y104.734 E2.26541
G1 X94.724 Y104.734 E2.27854
G1 X94.388 Y103.228 F5400.000
G1 X94.388 Y102.970 E2.28934 F1200.000
G1 X93.808 Y102.970 E2.31366
G1 X93.870 Y103.205 E2.32385
G1 X94.031 Y103.162 E2.33084
G1 X94.208 Y103.541 E2.34832
G1 X94.388 Y103.228 E2.36346
G1 Z0.600 F5400.000
G1 E0.36346 F2400.00000
G92 E0
G1 Z0.750 F5400.000
G1 X105.661 Y109.206 F5400.000
G1 Z0.600 F5400.000
G1 E2.00000 F2400.00000
G1 X104.903 Y107.892 E2.06349 F600.000
G1 X104.383 Y108.192 E2.08861
G1 X105.142 Y109.506 E2.15210
G1 X104.501 Y109.818 E2.18193
G1 X103.623 Y110.174 E2.22157
G1 X102.657 Y110.468 E2.26386
G1 X102.174 Y110.579 E2.28459
G1 X101.239 Y110.729 E2.32423
G1 X100.229 Y110.798 E2.36660
G1 X99.283 Y110.776 E2.40624
G1 X98.790 Y110.732 E2.42696
G1 X97.823 Y110.579 E2.46793
G1 X96.872 Y110.338 E2.50899
G1 X95.947 Y110.011 E2.55005
G1 X94.856 Y109.510 E2.60033
G1 X95.617 Y108.192 E2.66403
G1 X95.097 Y107.892 E2.68914
G1 X94.339 Y109.206 E2.75264
G1 X93.760 Y108.815 E2.78187
G1 X93.049 Y108.267 E2.81944
G1 X92.363 Y107.637 E2.85843
G1 X91.734 Y106.951 E2.89741
G1 X91.185 Y106.240 E2.93498
G1 X90.794 Y105.662 E2.96421
G1 X92.108 Y104.903 E3.02771
G1 X91.808 Y104.384 E3.05282
G1 X90.494 Y105.142 E3.11632
G1 X90.182 Y104.501 E3.14615
G1 X89.826 Y103.624 E3.18579
G1 X89.532 Y102.657 E3.22807
G1 X89.421 Y102.175 E3.24880
G1 X89.271 Y101.240 E3.28844
G1 X89.202 Y100.230 E3.33082
G1 X89.224 Y99.283 E3.37046
G1 X89.268 Y98.790 E3.39118
G1 X89.421 Y97.824 E3.43214
G1 X89.663 Y96.873 E3.47321
G1 X89.989 Y95.948 E3.51426
G1 X90.490 Y94.856 E3.56454
G1 X91.808 Y95.617 E3.62824
G1 X92.108 Y95.097 E3.65336
G1 X90.794 Y94.339 E3.71685
G1 X91.185 Y93.760 E3.74609
G1 X91.734 Y93.050 E3.78366
G1 X92.363 Y92.363 E3.82264
G1 X93.049 Y91.734 E3.86162
G1 X93.760 Y91.186 E3.89919
G1 X94.339 Y90.795 E3.92843
G1 X95.097 Y92.108 E3.99192
G1 X95.617 Y91.808 E4.01704
G1 X94.858 Y90.495 E4.08053
