; generated by Slic3r 1.2.9 on 2017-06-09 at 11:20:08

; external perimeters extrusion width = 0.40mm
; perimeters extrusion width = 0.48mm
; infill extrusion width = 0.48mm
; solid infill extrusion width = 0.48mm
; top infill extrusion width = 0.48mm
; support material extrusion width = 0.40mm

M107
M190 S100 ; set bed temperature
M104 S240 ; set temperature
G28 ; home all axes
G1 Z5 F5000 ; lift nozzle

M109 S240 ; wait for temperature to be reached
G21 ; set units to millimeters
G90 ; use absolute coordinates
M82 ; use absolute distances for extrusion
G92 E0
G1 Z0.300 F5400.000
G1 E-2.00000 F2400.00000
G92 E0
G1 Z0.450 F5400.000
G1 X85.179 Y89.287 F5400.000
G1 Z0.300 F5400.000
G1 E2.00000 F2400.00000
G1 X86.928 Y87.828 E2.15217 F1800.000
G1 X90.175 Y86.964 E2.37660
G1 X109.825 Y86.964 E3.68933
G1 X112.068 Y87.361 E3.84150
G1 X114.038 Y88.504 E3.99367 F1800.000
G1 X115.497 Y90.253 E4.14584
G1 X116.361 Y93.500 E4.37027
G1 X116.361 Y106.500 E5.23874
G1 X115.964 Y108.743 E5.39091
G1 X114.821 Y110.713 E5.54308
G1 X113.072 Y112.172 E5.69525
G1 X109.825 Y113.036 E5.91968
G1 X90.175 Y113.036 E7.23241
G1 X87.932 Y112.639 E7.38458
G1 X85.962 Y111.496 E7.53675
G1 X84.503 Y109.747 E7.68892
G1 X83.639 Y106.500 E7.91335
G1 X83.639 Y93.500 E8.78182
G1 X84.036 Y91.257 E8.93399
G1 X85.149 Y89.338 E9.08216
G1 E7.08216 F2400.00000
G92 E0
G1 Z0.450 F5400.000
G1 X108.454 Y105.129 F5400.000
G1 Z0.300 F5400.000
G1 E2.00000 F2400.00000
G1 X91.546 Y105.129 E3.12951 F1800.000
G1 X91.546 Y94.871 E3.81477
G1 X108.454 Y94.871 E4.94429
G1 X108.454 Y105.069 E5.62554
G1 X108.989 Y105.664 F5400.000
G1 X91.011 Y105.664 E6.82661 F1800.000
G1 X91.011 Y94.336 E7.58344
G1 X108.989 Y94.336 E8.78452
G1 X108.989 Y105.604 E9.53733
G1 X109.525 Y106.200 F5400.000
G1 X90.475 Y106.200 E10.80997 F1800.000
G1 X90.475 Y93.800 E11.63836
G1 X109.525 Y93.800 E12.91100
G1 X109.525 Y106.140 E13.73538
G1 X109.179 Y106.000 F5400.000
G1 X108.132 Y95.460 F5400.000
G1 X107.865 Y95.193 E13.76098 F1800.000
G1 X107.097 Y95.193 E13.81300
G1 X108.132 Y96.228 E13.91217
G1 X108.132 Y96.996 E13.96419
G1 X106.329 Y95.193 E14.13692
G1 X105.561 Y95.193 E14.18894
G1 X108.132 Y97.764 E14.43524
G1 X108.132 Y98.532 E14.48725
G1 X104.793 Y95.193 E14.80712
G1 X104.025 Y95.193 E14.85914
G1 X108.132 Y99.300 E15.25257
G1 X108.132 Y100.068 E15.30459
G1 X103.257 Y95.193 E15.77159
G1 X102.489 Y95.193 E15.82361
G1 X108.132 Y100.836 E16.36417
G1 X108.132 Y101.604 E16.41619
G1 X101.721 Y95.193 E17.03032
G1 X100.953 Y95.193 E17.08234
G1 X108.132 Y102.372 E17.77003
G1 X108.132 Y103.140 E17.82205
G1 X100.185 Y95.193 E18.58332
G1 X99.417 Y95.193 E18.63534
G1 X108.132 Y103.908 E19.47017
G1 X108.132 Y104.676 E19.52218
G1 X98.649 Y95.193 E20.43058
G1 X97.881 Y95.193 E20.48260
G1 X107.495 Y104.807 E21.40354
G1 X106.727 Y104.807 E21.45556
G1 X97.113 Y95.193 E22.37651
G1 X96.345 Y95.193 E22.42853
G1 X105.959 Y104.807 E23.34947
G1 X105.191 Y104.807 E23.40149
G1 X95.577 Y95.193 E24.32243
G1 X94.809 Y95.193 E24.37445
G1 X104.423 Y104.807 E25.29539
G1 X103.655 Y104.807 E25.34741
G1 X94.041 Y95.193 E26.26836
G1 X93.273 Y95.193 E26.32038
G1 X102.887 Y104.807 E27.24132
G1 X102.119 Y104.807 E27.29334
G1 X92.505 Y95.193 E28.21428
G1 X91.868 Y95.324 E28.25833
G1 X101.351 Y104.807 E29.16672
G1 X100.583 Y104.807 E29.21874
G1 X91.868 Y96.092 E30.05357
G1 X91.868 Y96.860 E30.10559
G1 X99.815 Y104.807 E30.86685
G1 X99.047 Y104.807 E30.91887
G1 X91.868 Y97.628 E31.60656
G1 X91.868 Y98.396 E31.65858
G1 X98.279 Y104.807 E32.27271
G1 X97.511 Y104.807 E32.32473
G1 X91.868 Y99.164 E32.86529
G1 X91.868 Y99.932 E32.91731
G1 X96.743 Y104.807 E33.38431
G1 X95.975 Y104.807 E33.43633
G1 X91.868 Y100.700 E33.82975
G1 X91.868 Y101.468 E33.88177
G1 X95.207 Y104.807 E34.20164
G1 X94.439 Y104.807 E34.25365
G1 X91.868 Y102.236 E34.49995
G1 X91.868 Y103.004 E34.55197
G1 X93.671 Y104.807 E34.72470
G1 X92.903 Y104.807 E34.77672
G1 X91.868 Y103.772 E34.87588
G1 X91.868 Y104.540 E34.92790
G1 X92.135 Y104.807 E34.95350
G1 Z0.300 F5400.000
G1 Z0.600 F5400.000
G1 X108.829 Y105.504 F5400.000
G1 X91.171 Y105.504 E35.87603 F1200.000
G1 X91.171 Y94.496 E36.45112
G1 X108.829 Y94.496 E37.37365
G1 X108.829 Y105.444 E37.94562
G1 X109.248 Y105.923 F5400.000
G1 X90.752 Y105.923 E38.91191 F1200.000
G1 X90.752 Y94.077 E39.53078
G1 X109.248 Y94.077 E40.49707
G1 X109.248 Y105.863 E41.11281
G1 X109.625 Y106.300 F5400.000
G1 X90.375 Y106.300 E41.91862 F600.000
G1 X90.375 Y93.700 E42.44606
G1 X109.625 Y93.700 E43.25187
G1 X109.625 Y106.240 E43.77680
G1 X109.279 Y106.100 F5400.000
G1 X108.364 Y105.257 F5400.000
G1 X108.582 Y105.039 E43.79323 F1200.000
G1 X108.582 Y104.434 E43.82555
G1 X107.759 Y105.257 E43.88770
G1 X107.153 Y105.257 E43.92002
G1 X108.582 Y103.828 E44.02787
G1 X108.582 Y103.223 E44.06019
G1 X106.548 Y105.257 E44.21376
G1 X105.943 Y105.257 E44.24608
G1 X108.582 Y102.618 E44.44534
G1 X108.582 Y102.012 E44.47767
G1 X105.337 Y105.257 E44.72264
G1 X104.732 Y105.257 E44.75496
G1 X108.582 Y101.407 E45.04565
G1 X108.582 Y100.801 E45.07797
G1 X104.126 Y105.257 E45.41436
G1 X103.521 Y105.257 E45.44668
G1 X108.582 Y100.196 E45.82878
G1 X108.582 Y99.591 E45.86110
G1 X102.916 Y105.257 E46.28891
G1 X102.310 Y105.257 E46.32123
G1 X108.582 Y98.985 E46.79474
G1 X108.582 Y98.380 E46.82706
G1 X101.705 Y105.257 E47.34628
G1 X101.100 Y105.257 E47.37860
G1 X108.582 Y97.775 E47.94353
G1 X108.582 Y97.169 E47.97585
G1 X100.494 Y105.257 E48.58649
G1 X99.889 Y105.257 E48.61881
G1 X108.582 Y96.564 E49.27516
G1 X108.582 Y95.959 E49.30748
G1 X99.284 Y105.257 E50.00953
G1 X98.678 Y105.257 E50.04185
G1 X108.582 Y95.353 E50.78961
G1 X108.564 Y94.766 E50.82100
G1 X98.073 Y105.257 E51.61312
G1 X97.467 Y105.257 E51.64544
G1 X107.981 Y94.743 E52.43925
G1 X107.375 Y94.743 E52.47157
G1 X96.862 Y105.257 E53.26538
G1 X96.257 Y105.257 E53.29770
G1 X106.770 Y94.743 E54.09151
G1 X106.165 Y94.743 E54.12383
G1 X95.651 Y105.257 E54.91763
G1 X95.046 Y105.257 E54.94995
G1 X105.559 Y94.743 E55.74376
G1 X104.954 Y94.743 E55.77608
G1 X94.441 Y105.257 E56.56989
G1 X93.835 Y105.257 E56.60221
G1 X104.349 Y94.743 E57.39602
G1 X103.743 Y94.743 E57.42834
G1 X93.230 Y105.257 E58.22214
G1 X92.625 Y105.257 E58.25446
G1 X103.138 Y94.743 E59.04827
G1 X102.533 Y94.743 E59.08059
G1 X92.019 Y105.257 E59.87440
G1 X91.436 Y105.234 E59.90555
G1 X101.927 Y94.743 E60.69768
G1 X101.322 Y94.743 E60.73000
G1 X91.418 Y104.647 E61.47776
G1 X91.418 Y104.041 E61.51008
G1 X100.716 Y94.743 E62.21214
G1 X100.111 Y94.743 E62.24446
G1 X91.418 Y103.436 E62.90080
G1 X91.418 Y102.831 E62.93312
G1 X99.506 Y94.743 E63.54376
G1 X98.900 Y94.743 E63.57608
G1 X91.418 Y102.225 E64.14101
G1 X91.418 Y101.620 E64.17333
G1 X98.295 Y94.743 E64.69255
G1 X97.690 Y94.743 E64.72487
G1 X91.418 Y101.015 E65.19838
G1 X91.418 Y100.409 E65.23070
G1 X97.084 Y94.743 E65.65851
G1 X96.479 Y94.743 E65.69083
G1 X91.418 Y99.804 E66.07293
G1 X91.418 Y99.199 E66.10525
G1 X95.874 Y94.743 E66.44164
G1 X95.268 Y94.743 E66.47396
G1 X91.418 Y98.593 E66.76465
G1 X91.418 Y97.988 E66.79697
G1 X94.663 Y94.743 E67.04194
G1 X94.057 Y94.743 E67.07426
G1 X91.418 Y97.382 E67.27353
G1 X91.418 Y96.777 E67.30585
G1 X93.452 Y94.743 E67.45941
G1 X92.847 Y94.743 E67.49173
G1 X91.418 Y96.172 E67.59959
G1 X91.418 Y95.566 E67.63191
G1 X92.241 Y94.743 E67.69405
G1 X91.636 Y94.743 E67.72637
G1 X91.418 Y94.961 E67.74281
G1 Z0.900 F5400.000
G1 X108.829 Y105.504 F5400.000
G1 X91.171 Y105.504 E68.66534 F1200.000
G1 X91.171 Y94.496 E69.24044
G1 X108.829 Y94.496 E70.16296
G1 X108.829 Y105.444 E70.73493
G1 X109.248 Y105.923 F5400.000
G1 X90.752 Y105.923 E71.70122 F1200.000
G1 X90.752 Y94.077 E72.32009
G1 X109.248 Y94.077 E73.28639
G1 X109.248 Y105.863 E73.90212
G1 X109.625 Y106.300 F5400.000
G1 X90.375 Y106.300 E74.70793 F600.000
G1 X90.375 Y93.700 E75.23537
G1 X109.625 Y93.700 E76.04118
G1 X109.625 Y106.240 E76.56611
G1 X109.279 Y106.100 F5400.000
G1 X108.582 Y94.961 F5400.000
G1 X108.364 Y94.743 E76.58255 F1200.000
G1 X107.759 Y94.743 E76.61487
G1 X108.582 Y95.566 E76.67701
G1 X108.582 Y96.172 E76.70933
G1 X107.153 Y94.743 E76.81719
G1 X106.548 Y94.743 E76.84951
G1 X108.582 Y96.777 E77.00307
G1 X108.582 Y97.382 E77.03539
G1 X105.943 Y94.743 E77.23466
G1 X105.337 Y94.743 E77.26698
G1 X108.582 Y97.988 E77.51195
G1 X108.582 Y98.593 E77.54427
G1 X104.732 Y94.743 E77.83496
G1 X104.126 Y94.743 E77.86728
G1 X108.582 Y99.199 E78.20367
G1 X108.582 Y99.804 E78.23599
G1 X103.521 Y94.743 E78.61809
G1 X102.916 Y94.743 E78.65041
G1 X108.582 Y100.409 E79.07822
G1 X108.582 Y101.015 E79.11054
G1 X102.310 Y94.743 E79.58405
G1 X101.705 Y94.743 E79.61637
G1 X108.582 Y101.620 E80.13559
G1 X108.582 Y102.225 E80.16792
G1 X101.100 Y94.743 E80.73284
G1 X100.494 Y94.743 E80.76517
G1 X108.582 Y102.831 E81.37580
G1 X108.582 Y103.436 E81.40812
G1 X99.889 Y94.743 E82.06447
G1 X99.284 Y94.743 E82.09679
G1 X108.582 Y104.041 E82.79884
G1 X108.582 Y104.647 E82.83116
G1 X98.678 Y94.743 E83.57892
G1 X98.073 Y94.743 E83.61124
G1 X108.564 Y105.234 E84.40337
G1 X107.981 Y105.257 E84.43452
G1 X97.467 Y94.743 E85.22833
G1 X96.862 Y94.743 E85.26065
G1 X107.375 Y105.257 E86.05446
G1 X106.770 Y105.257 E86.08678
G1 X96.257 Y94.743 E86.88059
G1 X95.651 Y94.743 E86.91291
G1 X106.165 Y105.257 E87.70672
G1 X105.559 Y105.257 E87.73904
G1 X95.046 Y94.743 E88.53284
G1 X94.441 Y94.743 E88.56516
G1 X104.954 Y105.257 E89.35897
G1 X104.349 Y105.257 E89.39129
G1 X93.835 Y94.743 E90.18510
G1 X93.230 Y94.743 E90.21742
G1 X103.743 Y105.257 E91.01123
G1 X103.138 Y105.257 E91.04355
G1 X92.625 Y94.743 E91.83736
G1 X92.019 Y94.743 E91.86968
G1 X102.533 Y105.257 E92.66348
G1 X101.927 Y105.257 E92.69580
G1 X91.436 Y94.766 E93.48793
G1 X91.418 Y95.353 E93.51932
G1 X101.322 Y105.257 E94.26708
G1 X100.716 Y105.257 E94.29940
G1 X91.418 Y95.959 E95.00145
G1 X91.418 Y96.564 E95.03377
G1 X100.111 Y105.257 E95.69012
G1 X99.506 Y105.257 E95.72244
G1 X91.418 Y97.169 E96.33307
G1 X91.418 Y97.775 E96.36539
G1 X98.900 Y105.257 E96.93032
G1 X98.295 Y105.257 E96.96264
G1 X91.418 Y98.380 E97.48186
G1 X91.418 Y98.985 E97.51419
G1 X97.690 Y105.257 E97.98770
G1 X97.084 Y105.257 E98.02002
G1 X91.418 Y99.591 E98.44783
G1 X91.418 Y100.196 E98.48015
G1 X96.479 Y105.257 E98.86225
G1 X95.874 Y105.257 E98.89457
G1 X91.418 Y100.801 E99.23096
G1 X91.418 Y101.407 E99.26328
G1 X95.268 Y105.257 E99.55396
G1 X94.663 Y105.257 E99.58628
G1 X91.418 Y102.012 E99.83126
G1 X91.418 Y102.618 E99.86358
G1 X94.057 Y105.257 E100.06285
G1 X93.452 Y105.257 E100.09517
G1 X91.418 Y103.223 E100.24873
G1 X91.418 Y103.828 E100.28105
G1 X92.847 Y105.257 E100.38890
G1 X92.241 Y105.257 E100.42122
G1 X91.418 Y104.434 E100.48337
G1 X91.418 Y105.039 E100.51569
G1 X91.636 Y105.257 E100.53213
M106 S163.2
G1 Z1.200 F5400.000
G1 X108.829 Y105.504 F5400.000
G1 X91.171 Y105.504 E101.45465 F1200.000
G1 X91.171 Y94.496 E102.02975
G1 X108.829 Y94.496 E102.95228
G1 X108.829 Y105.444 E103.52424
G1 X109.248 Y105.923 F5400.000
G1 X90.752 Y105.923 E104.49054 F1200.000
G1 X90.752 Y94.077 E105.10941
G1 X109.248 Y94.077 E106.07570
G1 X109.248 Y105.863 E106.69143
G1 X109.625 Y106.300 F5400.000
G1 X90.375 Y106.300 E107.49725 F600.000
G1 X90.375 Y93.700 E108.02468
G1 X109.625 Y93.700 E108.83050
G1 X109.625 Y106.240 E109.35542
G1 X109.279 Y106.100 F5400.000
G1 X108.364 Y105.257 F5400.000
G1 X108.582 Y105.039 E109.37186 F1200.000
G1 X108.582 Y104.434 E109.40418
G1 X107.759 Y105.257 E109.46633
G1 X107.153 Y105.257 E109.49865
G1 X108.582 Y103.828 E109.60650
G1 X108.582 Y103.223 E109.63882
G1 X106.548 Y105.257 E109.79238
G1 X105.943 Y105.257 E109.82470
G1 X108.582 Y102.618 E110.02397
G1 X108.582 Y102.012 E110.05629
G1 X105.337 Y105.257 E110.30127
G1 X104.732 Y105.257 E110.33359
G1 X108.582 Y101.407 E110.62427
G1 X108.582 Y100.801 E110.65659
G1 X104.126 Y105.257 E110.99299
G1 X103.521 Y105.257 E111.02531
G1 X108.582 Y100.196 E111.40741
G1 X108.582 Y99.591 E111.43973
G1 X102.916 Y105.257 E111.86753
G1 X102.310 Y105.257 E111.89985
G1 X108.582 Y98.985 E112.37337
G1 X108.582 Y98.380 E112.40569
G1 X101.705 Y105.257 E112.92491
G1 X101.100 Y105.257 E112.95723
G1 X108.582 Y97.775 E113.52216
G1 X108.582 Y97.169 E113.55448
G1 X100.494 Y105.257 E114.16512
G1 X99.889 Y105.257 E114.19744
G1 X108.582 Y96.564 E114.85378
G1 X108.582 Y95.959 E114.88610
G1 X99.284 Y105.257 E115.58816
G1 X98.678 Y105.257 E115.62048
G1 X108.582 Y95.353 E116.36824
G1 X108.564 Y94.766 E116.39962
G1 X98.073 Y105.257 E117.19175
G1 X97.467 Y105.257 E117.22407
G1 X107.981 Y94.743 E118.01788
G1 X107.375 Y94.743 E118.05020
G1 X96.862 Y105.257 E118.84401
G1 X96.257 Y105.257 E118.87633
G1 X106.770 Y94.743 E119.67013
G1 X106.165 Y94.743 E119.70245
G1 X95.651 Y105.257 E120.49626
G1 X95.046 Y105.257 E120.52858
G1 X105.559 Y94.743 E121.32239
G1 X104.954 Y94.743 E121.35471
G1 X94.441 Y105.257 E122.14852
G1 X93.835 Y105.257 E122.18084
G1 X104.349 Y94.743 E122.97465
G1 X103.743 Y94.743 E123.00697
G1 X93.230 Y105.257 E123.80077
G1 X92.625 Y105.257 E123.83309
G1 X103.138 Y94.743 E124.62690
G1 X102.533 Y94.743 E124.65922
G1 X92.019 Y105.257 E125.45303
G1 X91.436 Y105.234 E125.48418
G1 X101.927 Y94.743 E126.27631
G1 X101.322 Y94.743 E126.30863
G1 X91.418 Y104.647 E127.05639
G1 X91.418 Y104.041 E127.08871
G1 X100.716 Y94.743 E127.79076
G1 X100.111 Y94.743 E127.82308
G1 X91.418 Y103.436 E128.47943
G1 X91.418 Y102.831 E128.51175
G1 X99.506 Y94.743 E129.12239
G1 X98.900 Y94.743 E129.15471
G1 X91.418 Y102.225 E129.71964
G1 X91.418 Y101.620 E129.75196
G1 X98.295 Y94.743 E130.27118
G1 X97.690 Y94.743 E130.30350
G1 X91.418 Y101.015 E130.77701
G1 X91.418 Y100.409 E130.80933
G1 X97.084 Y94.743 E131.23714
G1 X96.479 Y94.743 E131.26946
G1 X91.418 Y99.804 E131.65156
G1 X91.418 Y99.199 E131.68388
G1 X95.874 Y94.743 E132.02027
G1 X95.268 Y94.743 E132.05259
G1 X91.418 Y98.593 E132.34327
G1 X91.418 Y97.988 E132.37560
G1 X94.663 Y94.743 E132.62057
G1 X94.057 Y94.743 E132.65289
G1 X91.418 Y97.382 E132.85216
G1 X91.418 Y96.777 E132.88448
G1 X93.452 Y94.743 E133.03804
G1 X92.847 Y94.743 E133.07036
G1 X91.418 Y96.172 E133.17822
G1 X91.418 Y95.566 E133.21054
G1 X92.241 Y94.743 E133.27268
G1 X91.636 Y94.743 E133.30500
G1 X91.418 Y94.961 E133.32144
G1 Z1.500 F5400.000
G1 E131.32144 F2400.00000
G92 E0
G1 Z1.650 F5400.000
G1 X108.829 Y105.504 F5400.000
G1 Z1.500 F5400.000
G1 E2.00000 F2400.00000
G1 X91.171 Y105.504 E2.92253 F1200.000
G1 X91.171 Y94.496 E3.49763
G1 X108.829 Y94.496 E4.42015
G1 X108.829 Y105.444 E4.99212
G1 X109.248 Y105.923 F5400.000
G1 X90.752 Y105.923 E5.95841 F1200.000
G1 X90.752 Y94.077 E6.57728
G1 X109.248 Y94.077 E7.54357
G1 X109.248 Y105.863 E8.15931
G1 X109.625 Y106.300 F5400.000
G1 X90.375 Y106.300 E8.96512 F600.000
G1 X90.375 Y93.700 E9.49256
G1 X109.625 Y93.700 E10.29837
G1 X109.625 Y106.240 E10.82330
G1 X109.279 Y106.100 F5400.000
G1 E8.82330 F2400.00000
G92 E0
G1 Z1.650 F5400.000
G1 X108.582 Y94.961 F5400.000
G1 Z1.500 F5400.000
G1 E2.00000 F2400.00000
G1 X108.364 Y94.743 E2.01644 F1200.000
G1 X107.759 Y94.743 E2.04876
G1 X108.582 Y95.566 E2.11090
G1 X108.582 Y96.172 E2.14322
G1 X107.153 Y94.743 E2.25108
G1 X106.548 Y94.743 E2.28340
G1 X108.582 Y96.777 E2.43696
G1 X108.582 Y97.382 E2.46928
G1 X105.943 Y94.743 E2.66855
G1 X105.337 Y94.743 E2.70087
G1 X108.582 Y97.988 E2.94585
G1 X108.582 Y98.593 E2.97817
G1 X104.732 Y94.743 E3.26885
G1 X104.126 Y94.743 E3.30117
G1 X108.582 Y99.199 E3.63756
G1 X108.582 Y99.804 E3.66988
G1 X103.521 Y94.743 E4.05198
G1 X102.916 Y94.743 E4.08430
G1 X108.582 Y100.409 E4.51211
G1 X108.582 Y101.015 E4.54443
G1 X102.310 Y94.743 E5.01794
G1 X101.705 Y94.743 E5.05026
G1 X108.582 Y101.620 E5.56949
G1 X108.582 Y102.225 E5.60181
G1 X101.100 Y94.743 E6.16674
G1 X100.494 Y94.743 E6.19906
G1 X108.582 Y102.831 E6.80969
G1 X108.582 Y103.436 E6.84201
G1 X99.889 Y94.743 E7.49836
G1 X99.284 Y94.743 E7.53068
G1 X108.582 Y104.041 E8.23273
G1 X108.582 Y104.647 E8.26505
G1 X98.678 Y94.743 E9.01281
G1 X98.073 Y94.743 E9.04513
G1 X108.564 Y105.234 E9.83726
G1 X107.981 Y105.257 E9.86842
G1 X97.467 Y94.743 E10.66222
G1 X96.862 Y94.743 E10.69454
G1 X107.375 Y105.257 E11.48835
G1 X106.770 Y105.257 E11.52067
G1 X96.257 Y94.743 E12.31448
G1 X95.651 Y94.743 E12.34680
