; generated by Slic3r 1.2.9 on 2017-06-09 at 11:04:04

; external perimeters extrusion width = 0.40mm
; perimeters extrusion width = 0.48mm
; infill extrusion width = 0.48mm
; solid infill extrusion width = 0.48mm
; top infill extrusion width = 0.48mm
; support material extrusion width = 0.40mm

M107
M190 S100 ; set bed temperature
M104 S240 ; set temperature
G28 ; home all axes
G1 Z5 F5000 ; lift nozzle

M109 S240 ; wait for temperature to be reached
G21 ; set units to millimeters
G90 ; use absolute coordinates
M82 ; use absolute distances for extrusion
G92 E0
G1 Z0.300 F5400.000
G1 E-2.00000 F2400.00000
G92 E0
G1 Z0.450 F5400.000
G1 X87.410 Y87.619 F5400.000
G1 Z0.300 F5400.000
G1 E2.00000 F2400.00000
G1 X87.966 Y87.078 E2.05183 F1800.000
G1 X88.797 Y86.347 E2.12576
G1 X89.569 Y85.752 E2.19089
G1 X90.171 Y85.331 E2.23996
G1 X90.825 Y84.913 E2.29179
G1 X91.496 Y84.525 E2.34362
G1 X92.443 Y84.041 E2.41461
G1 X93.151 Y83.724 E2.46645
G1 X93.961 Y83.408 E2.52455
G1 X95.073 Y83.043 E2.60274
G1 X95.823 Y82.843 E2.65457
G1 X96.863 Y82.623 E2.72556
G1 X97.629 Y82.502 E2.77740
G1 X98.400 Y82.415 E2.82923
G1 X99.268 Y82.358 E2.88732
G1 X100.438 Y82.348 E2.96552
G1 X101.213 Y82.384 E3.01734 F1800.000
G1 X102.158 Y82.474 E3.08079
G1 X102.784 Y82.560 E3.12295
G1 X103.518 Y82.696 E3.17285
G1 X104.275 Y82.867 E3.22466
G1 X105.023 Y83.072 E3.27650
G1 X105.762 Y83.309 E3.32833
G1 X106.489 Y83.578 E3.38013
G1 X107.204 Y83.879 E3.43198
G1 X107.906 Y84.211 E3.48381
G1 X108.841 Y84.715 E3.55481
G1 X109.504 Y85.118 E3.60664
G1 X110.149 Y85.550 E3.65847
G1 X110.773 Y86.010 E3.71029
G1 X111.378 Y86.497 E3.76213
G1 X111.960 Y87.009 E3.81395
G1 X112.519 Y87.547 E3.86578
G1 X113.378 Y88.475 E3.95024
G1 X113.871 Y89.074 E4.00207
G1 X114.338 Y89.693 E4.05390
G1 X114.777 Y90.333 E4.10572
G1 X115.187 Y90.992 E4.15756
G1 X115.568 Y91.667 E4.20939
G1 X115.919 Y92.359 E4.26121
G1 X116.239 Y93.066 E4.31304
G1 X116.528 Y93.786 E4.36487
G1 X116.785 Y94.518 E4.41670
G1 X117.010 Y95.260 E4.46852
G1 X117.202 Y96.012 E4.52036
G1 X117.360 Y96.772 E4.57218
G1 X117.485 Y97.537 E4.62401
G1 X117.577 Y98.308 E4.67584
G1 X117.649 Y99.462 E4.75310
G1 X117.657 Y100.144 E4.79866
G1 X117.634 Y100.919 E4.85049
G1 X117.577 Y101.693 E4.90231
G1 X117.485 Y102.463 E4.95415
G1 X117.360 Y103.229 E5.00597
G1 X117.202 Y103.988 E5.05780
G1 X117.010 Y104.740 E5.10964
G1 X116.785 Y105.483 E5.16146
G1 X116.528 Y106.215 E5.21329
G1 X116.239 Y106.935 E5.26511
G1 X115.919 Y107.642 E5.31695
G1 X115.568 Y108.333 E5.36877
G1 X115.187 Y109.009 E5.42059
G1 X114.777 Y109.667 E5.47243
G1 X114.338 Y110.307 E5.52426
G1 X113.871 Y110.927 E5.57608
G1 X113.378 Y111.526 E5.62792
G1 X112.859 Y112.102 E5.67975
G1 X112.315 Y112.655 E5.73157
G1 X111.747 Y113.184 E5.78340
G1 X111.157 Y113.687 E5.83522
G1 X110.545 Y114.164 E5.88705
G1 X109.912 Y114.614 E5.93888
G1 X109.261 Y115.035 E5.99071
G1 X108.592 Y115.427 E6.04254
G1 X107.906 Y115.790 E6.09436
G1 X106.755 Y116.315 E6.17885
G1 X106.032 Y116.596 E6.23066
G1 X105.298 Y116.845 E6.28248
G1 X104.553 Y117.061 E6.33431
G1 X103.799 Y117.245 E6.38615
G1 X102.458 Y117.489 E6.47717
G1 X101.499 Y117.595 E6.54163
G1 X100.725 Y117.644 E6.59344
G1 X99.568 Y117.652 E6.67072
G1 X98.887 Y117.623 E6.71628
G1 X98.114 Y117.558 E6.76810
G1 X97.345 Y117.458 E6.81992
G1 X96.580 Y117.324 E6.87176
G1 X95.823 Y117.157 E6.92359
G1 X95.073 Y116.957 E6.97541
G1 X93.872 Y116.561 E7.05989
G1 X93.151 Y116.276 E7.11171
G1 X92.443 Y115.960 E7.16353
G1 X91.587 Y115.526 E7.22765
G1 X90.174 Y114.754 E7.33522
G1 X89.420 Y114.279 E7.39477
G1 X88.619 Y113.629 E7.46366
G1 X87.617 Y112.628 E7.55829
G1 X86.843 Y111.778 E7.63505
G1 X86.372 Y111.229 E7.68339
G1 X85.892 Y110.620 E7.73521
G1 X85.439 Y109.990 E7.78704
G1 X85.013 Y109.339 E7.83900
G1 X84.618 Y108.673 E7.89073
G1 X84.252 Y107.989 E7.94252
G1 X83.916 Y107.290 E7.99436
G1 X83.612 Y106.576 E8.04618
G1 X83.339 Y105.850 E8.09800
G1 X83.098 Y105.113 E8.14985
G1 X82.890 Y104.366 E8.20166
G1 X82.714 Y103.610 E8.25350
G1 X82.573 Y102.847 E8.30533
G1 X82.425 Y101.700 E8.38259
G1 X82.371 Y101.020 E8.42814
G1 X82.343 Y100.245 E8.47998
G1 X82.350 Y99.469 E8.53181
G1 X82.390 Y98.694 E8.58363
G1 X82.464 Y97.922 E8.63545
G1 X82.573 Y97.154 E8.68729
G1 X82.714 Y96.391 E8.73911
G1 X82.890 Y95.635 E8.79096
G1 X83.098 Y94.888 E8.84277
G1 X83.339 Y94.150 E8.89461
G1 X83.612 Y93.424 E8.94642
G1 X83.917 Y92.711 E8.99826
G1 X84.252 Y92.011 E9.05009
G1 X84.618 Y91.328 E9.10188
G1 X85.013 Y90.662 E9.15362
G1 X85.439 Y90.011 E9.20557
G1 X85.892 Y89.381 E9.25740
G1 X86.372 Y88.772 E9.30923
G1 X86.878 Y88.184 E9.36106
G1 X87.368 Y87.662 E9.40888
G1 E7.40888 F2400.00000
G92 E0
G1 Z0.450 F5400.000
G1 X101.350 Y107.444 F5400.000
G1 Z0.300 F5400.000
G1 E2.00000 F2400.00000
G1 X93.714 Y107.444 E2.51008 F1800.000
G1 X93.714 Y92.556 E3.50467
G1 X101.350 Y92.556 E4.01476
G1 X101.350 Y107.384 E5.00534
G1 X100.814 Y106.909 F5400.000
G1 X94.250 Y106.909 E5.44386 F1800.000
G1 X94.250 Y93.092 E6.36689
G1 X100.814 Y93.092 E6.80541
G1 X100.814 Y106.849 E7.72442
G1 X100.814 Y107.309 F5400.000
G1 X101.885 Y107.980 F5400.000
G1 X101.885 Y105.337 E7.90101 F1800.000
G1 X106.821 Y105.337 E8.23076
G1 X106.821 Y94.664 E8.94373
G1 X101.885 Y94.664 E9.27347
G1 X101.885 Y92.021 E9.45006
G1 X94.811 Y92.021 E9.92267
G1 X94.744 Y91.788 E9.93883
G1 X94.988 Y91.635 E9.95807
G1 X95.755 Y91.222 E10.01630
G1 X96.542 Y90.883 E10.07353
G1 X97.356 Y90.615 E10.13076
G1 X98.189 Y90.419 E10.18798
G1 X99.052 Y90.295 E10.24622
G1 X99.965 Y90.250 E10.30726
G1 X100.762 Y90.279 E10.36056
G1 X101.160 Y90.318 E10.38727
G1 X102.020 Y90.461 E10.44551
G1 X102.850 Y90.675 E10.50274
G1 X103.657 Y90.961 E10.55995
G1 X104.450 Y91.323 E10.61819
G1 X104.801 Y91.512 E10.64480
G1 X105.539 Y91.975 E10.70304
G1 X106.222 Y92.493 E10.76026
G1 X106.857 Y93.068 E10.81749
G1 X107.446 Y93.704 E10.87540
G1 X107.752 Y94.087 E10.90816
G1 X108.202 Y94.727 E10.96045
G1 X108.634 Y95.469 E11.01779
G1 X109.005 Y96.258 E11.07602
G1 X109.150 Y96.629 E11.10263
G1 X109.414 Y97.459 E11.16086
G1 X109.601 Y98.295 E11.21809
G1 X109.713 Y99.145 E11.27532
G1 X109.751 Y100.000 E11.33254
G1 X109.712 Y100.871 E11.39077
G1 X109.668 Y101.277 E11.41807
G1 X109.587 Y101.776 E11.45184
G1 X109.411 Y102.554 E11.50514
G1 X109.298 Y102.938 E11.53185
G1 X108.993 Y103.771 E11.59109
G1 X108.832 Y104.135 E11.61770
G1 X108.426 Y104.907 E11.67594
G1 X107.963 Y105.627 E11.73316
G1 X107.439 Y106.305 E11.79039
G1 X106.857 Y106.933 E11.84761
G1 X106.222 Y107.508 E11.90484
G1 X105.527 Y108.034 E11.96307
G1 X104.750 Y108.515 E12.02412
G1 X104.039 Y108.876 E12.07742
G1 X103.671 Y109.034 E12.10414
G1 X102.835 Y109.331 E12.16337
G1 X101.936 Y109.556 E12.22530
G1 X101.441 Y109.647 E12.25891
G1 X100.757 Y109.722 E12.30492
G1 X99.893 Y109.751 E12.36268
G1 X99.037 Y109.704 E12.41991
G1 X98.189 Y109.582 E12.47713
G1 X97.356 Y109.386 E12.53436
G1 X96.542 Y109.118 E12.59159
G1 X95.755 Y108.779 E12.64881
G1 X94.991 Y108.367 E12.70678
G1 X94.746 Y108.212 E12.72619
G1 X94.813 Y107.980 E12.74231
G1 X101.825 Y107.980 E13.21073
G1 X101.941 Y104.801 F5400.000
G1 X101.941 Y95.200 E13.85214 F1800.000
G1 X106.285 Y95.200 E14.14239
G1 X106.285 Y104.801 E14.78381
G1 X102.001 Y104.801 E15.07006
G1 X102.476 Y104.265 F5400.000
G1 X102.476 Y95.735 E15.63990 F1800.000
G1 X105.750 Y95.735 E15.85860
G1 X105.750 Y104.265 E16.42844
G1 X102.536 Y104.265 E16.64313
G1 X102.076 Y104.265 F5400.000
G1 E14.64313 F2400.00000
G92 E0
G1 Z0.450 F5400.000
G1 X93.179 Y106.991 F5400.000
G1 Z0.300 F5400.000
G1 E2.00000 F2400.00000
G1 X92.424 Y106.140 E2.07601 F1800.000
G1 X91.915 Y105.451 E2.13323
G1 X91.467 Y104.720 E2.19046
G1 X91.086 Y103.953 E2.24768
G1 X90.774 Y103.156 E2.30491
G1 X90.528 Y102.319 E2.36314
G1 X90.441 Y101.931 E2.38975
G1 X90.306 Y101.059 E2.44867
G1 X90.266 Y100.570 E2.48144
G1 X90.251 Y99.773 E2.53473
G1 X90.317 Y98.860 E2.59588
G1 X90.441 Y98.072 E2.64918
G1 X90.528 Y97.681 E2.67590
G1 X90.774 Y96.845 E2.73413
G1 X91.092 Y96.033 E2.79237
G1 X91.261 Y95.673 E2.81898
G1 X91.682 Y94.911 E2.87712
G1 X92.162 Y94.200 E2.93444
G1 X92.701 Y93.534 E2.99166
G1 X93.179 Y93.041 E3.03753
G1 X93.179 Y106.931 E3.96548
G1 X92.816 Y107.360 F5400.000
G1 X92.612 Y107.159 E3.98459 F1800.000
G1 X92.008 Y106.477 E4.04549
G1 X91.470 Y105.751 E4.10586
G1 X90.998 Y104.980 E4.16624
G1 X90.596 Y104.171 E4.22661
G1 X90.266 Y103.329 E4.28698
G1 X90.009 Y102.453 E4.34797
G1 X89.915 Y102.030 E4.37694
G1 X89.774 Y101.122 E4.43834
G1 X89.731 Y100.597 E4.47351
G1 X89.715 Y99.766 E4.52904
G1 X89.785 Y98.793 E4.59425
G1 X89.914 Y97.971 E4.64978
G1 X90.009 Y97.547 E4.67881
G1 X90.266 Y96.671 E4.73980
G1 X90.599 Y95.821 E4.80078
G1 X90.784 Y95.429 E4.82975
G1 X91.225 Y94.631 E4.89064
G1 X91.731 Y93.881 E4.95111
G1 X92.300 Y93.179 E5.01148
G1 X92.928 Y92.530 E5.07179
G1 X93.665 Y91.894 E5.13683
G1 X94.349 Y91.403 E5.19310
G1 X94.718 Y91.172 E5.22218
G1 X95.522 Y90.739 E5.28317
G1 X96.352 Y90.382 E5.34354
G1 X97.210 Y90.099 E5.40392
G1 X98.090 Y89.892 E5.46429
G1 X98.994 Y89.762 E5.52527
G1 X99.968 Y89.715 E5.59042
G1 X100.798 Y89.744 E5.64595
G1 X101.231 Y89.787 E5.67498 F1800.000
G1 X102.131 Y89.936 E5.73597
G1 X103.006 Y90.162 E5.79634
G1 X103.858 Y90.464 E5.85670
G1 X104.688 Y90.843 E5.91770
G1 X105.070 Y91.049 E5.94667
G1 X105.844 Y91.534 E6.00765
G1 X106.564 Y92.080 E6.06803
G1 X107.234 Y92.686 E6.12840
G1 X107.852 Y93.354 E6.18919
G1 X108.181 Y93.765 E6.22435
G1 X108.653 Y94.438 E6.27927
G1 X109.109 Y95.220 E6.33971
G1 X109.497 Y96.046 E6.40069
G1 X109.655 Y96.450 E6.42966
G1 X109.931 Y97.320 E6.49065
G1 X110.128 Y98.202 E6.55102
G1 X110.247 Y99.098 E6.61139
G1 X110.287 Y100.000 E6.67177
G1 X110.247 Y100.912 E6.73275
G1 X110.113 Y101.878 E6.79790
G1 X109.930 Y102.689 E6.85343
G1 X109.807 Y103.106 E6.88246
G1 X109.490 Y103.972 E6.94406
G1 X109.314 Y104.368 E6.97303
G1 X108.890 Y105.176 E7.03401
G1 X108.401 Y105.937 E7.09439
G1 X107.848 Y106.651 E7.15476
G1 X107.234 Y107.314 E7.21513
G1 X106.564 Y107.921 E7.27550
G1 X105.836 Y108.472 E7.33649
G1 X105.469 Y108.714 E7.36587
G1 X105.007 Y108.985 E7.40166
G1 X104.266 Y109.362 E7.45719
G1 X103.867 Y109.533 E7.48623
G1 X102.998 Y109.841 E7.54782
G1 X102.044 Y110.081 E7.61350
G1 X101.519 Y110.178 E7.64916
G1 X100.795 Y110.257 E7.69783
G1 X99.887 Y110.287 E7.75853
G1 X98.984 Y110.237 E7.81890
G1 X98.090 Y110.109 E7.87927
G1 X97.210 Y109.902 E7.93965
G1 X96.352 Y109.619 E8.00002
G1 X95.522 Y109.262 E8.06039
G1 X94.720 Y108.830 E8.12122
G1 X94.076 Y108.421 E8.17220
G1 X93.808 Y108.333 E8.19106
G1 X93.713 Y108.282 E8.19825
G1 X93.569 Y108.165 E8.21067
G1 X93.283 Y107.880 E8.23762
G1 X93.283 Y107.819 E8.24168
G1 X92.859 Y107.402 E8.28143
G1 X92.441 Y107.742 F5400.000
G1 X92.223 Y107.529 E8.30177 F1800.000
G1 X91.591 Y106.815 E8.36548
G1 X91.025 Y106.050 E8.42900
G1 X90.529 Y105.239 E8.49252
G1 X90.106 Y104.388 E8.55604
G1 X89.759 Y103.503 E8.61956
G1 X89.490 Y102.587 E8.68329
G1 X89.388 Y102.130 E8.71462
G1 X89.241 Y101.185 E8.77851
G1 X89.196 Y100.624 E8.81608
G1 X89.179 Y99.760 E8.87384
G1 X89.200 Y99.289 E8.90534
G1 X89.253 Y98.725 E8.94313
G1 X89.388 Y97.871 E9.00089
G1 X89.490 Y97.413 E9.03224
G1 X89.759 Y96.498 E9.09598
G1 X90.107 Y95.610 E9.15972
G1 X90.307 Y95.185 E9.19105
G1 X90.768 Y94.352 E9.25469
G1 X91.300 Y93.562 E9.31831
G1 X91.898 Y92.823 E9.38183
G1 X92.559 Y92.140 E9.44533
G1 X93.333 Y91.473 E9.51359
G1 X94.051 Y90.958 E9.57257
G1 X94.449 Y90.709 E9.60393
G1 X95.288 Y90.256 E9.66767
G1 X96.162 Y89.880 E9.73119
G1 X97.065 Y89.583 E9.79471
G1 X97.990 Y89.365 E9.85823
G1 X98.935 Y89.230 E9.92197
G1 X99.405 Y89.193 E9.95345
G1 X99.970 Y89.179 E9.99123
G1 X100.834 Y89.209 E10.04900
G1 X101.301 Y89.255 E10.08035 F1800.000
G1 X102.242 Y89.412 E10.14409
G1 X103.163 Y89.650 E10.20761
G1 X104.059 Y89.967 E10.27111
G1 X104.927 Y90.364 E10.33486
G1 X105.340 Y90.586 E10.36619
G1 X106.148 Y91.093 E10.42993
G1 X106.906 Y91.667 E10.49345
G1 X107.611 Y92.305 E10.55697
G1 X108.258 Y93.005 E10.62064
G1 X108.609 Y93.444 E10.65820
G1 X109.105 Y94.149 E10.71575
G1 X109.583 Y94.971 E10.77929
G1 X109.989 Y95.834 E10.84303
G1 X110.160 Y96.271 E10.87435
G1 X110.449 Y97.180 E10.93809
G1 X110.656 Y98.108 E11.00161
G1 X110.781 Y99.050 E11.06513
G1 X110.823 Y100.000 E11.12865
G1 X110.781 Y100.954 E11.19239
G1 X110.729 Y101.422 E11.22387
G1 X110.639 Y101.980 E11.26166
G1 X110.448 Y102.824 E11.31942
G1 X110.316 Y103.274 E11.35077
G1 X109.987 Y104.173 E11.41473
G1 X109.796 Y104.601 E11.44606
G1 X109.353 Y105.446 E11.50979
G1 X108.839 Y106.246 E11.57331
G1 X108.257 Y106.998 E11.63683
G1 X107.611 Y107.695 E11.70035
G1 X106.906 Y108.334 E11.76387
G1 X106.145 Y108.910 E11.82761
G1 X105.752 Y109.169 E11.85909
G1 X105.264 Y109.455 E11.89687
G1 X104.493 Y109.847 E11.95464
G1 X104.062 Y110.032 E11.98600
G1 X103.160 Y110.352 E12.04995
G1 X102.706 Y110.480 E12.08142
G1 X102.152 Y110.606 E12.11940
G1 X101.597 Y110.708 E12.15712
G1 X100.833 Y110.792 E12.20844
G1 X99.881 Y110.823 E12.27208
G1 X98.932 Y110.771 E12.33560
G1 X97.990 Y110.635 E12.39912
G1 X97.065 Y110.418 E12.46264
G1 X96.162 Y110.120 E12.52616
G1 X95.288 Y109.744 E12.58967
G1 X94.449 Y109.292 E12.65336
G1 X93.846 Y108.909 E12.70111
G1 X93.597 Y108.828 E12.71860
G1 X93.415 Y108.731 E12.73237
G1 X93.209 Y108.563 E12.75008
G1 X92.748 Y108.102 E12.79371
G1 X92.748 Y108.044 E12.79758
G1 X92.483 Y107.784 E12.82233
G1 X92.517 Y107.447 F5400.000
G1 X93.588 Y107.806 F5400.000
G1 X93.990 Y107.906 E12.84998 F1800.000
G1 X94.531 Y107.992 E12.88660
G1 X95.895 Y108.391 F5400.000
G1 X97.002 Y108.619 E13.04661 F1800.000
G1 X92.837 Y105.892 F5400.000
G1 X92.514 Y105.569 E13.07762 F1800.000
G1 X91.366 Y103.652 F5400.000
G1 X92.857 Y105.142 E13.22077 F1800.000
G1 X92.857 Y104.372 E13.27305
G1 X90.942 Y102.457 E13.45696
G1 X90.712 Y101.458 E13.52658
G1 X92.857 Y103.602 E13.73253
G1 X92.857 Y102.833 E13.78481
G1 X90.599 Y100.575 E14.00163
G1 X90.575 Y99.781 E14.05557
G1 X92.857 Y102.063 E14.27471
G1 X92.857 Y101.293 E14.32699
G1 X90.617 Y99.053 E14.54205
G1 X90.703 Y98.369 E14.58887
G1 X92.857 Y100.523 E14.79570
G1 X92.857 Y99.753 E14.84798
G1 X90.826 Y97.722 E15.04302
G1 X90.998 Y97.124 E15.08525
G1 X92.857 Y98.983 E15.26374
G1 X92.857 Y98.213 E15.31602
G1 X91.197 Y96.553 E15.47541
G1 X91.419 Y96.005 E15.51557
G1 X92.857 Y97.443 E15.65367
G1 X92.857 Y96.673 E15.70595
G1 X91.680 Y95.496 E15.81900
G1 X91.956 Y95.002 E15.85742
G1 X92.857 Y95.903 E15.94396
G1 X92.857 Y95.133 E15.99624
G1 X92.266 Y94.542 E16.05302
G1 X92.610 Y94.116 E16.09019
G1 X92.857 Y94.364 E16.11394
G1 X95.895 Y91.609 F5400.000
G1 X97.002 Y91.381 E16.27394 F1800.000
G1 E14.27394 F2400.00000
G92 E0
G1 Z0.450 F5400.000
G1 X101.645 Y94.932 F5400.000
G1 Z0.300 F5400.000
G1 E2.00000 F2400.00000
G1 X101.645 Y105.069 E2.67719 F1800.000
G1 E0.67719 F2400.00000
G92 E0
G1 Z0.450 F5400.000
G1 X97.274 Y108.792 F5400.000
G1 Z0.300 F5400.000
G1 E2.00000 F2400.00000
G1 X97.549 Y109.068 E2.02752 F1800.000
G1 X98.534 Y109.289 E2.09882
G1 X97.547 Y108.302 E2.19742
G1 X98.311 Y108.302 E2.25136
G1 X99.405 Y109.395 E2.36059
G1 X100.196 Y109.423 E2.41648
G1 X99.075 Y108.302 E2.52843
G1 X99.839 Y108.302 E2.58237
G1 X100.929 Y109.392 E2.69122
G1 X101.610 Y109.308 E2.73964
G1 X100.603 Y108.302 E2.84018
G1 X101.367 Y108.302 E2.89412
G1 X102.239 Y109.174 E2.98123
G1 X102.847 Y109.018 E3.02557
G1 X102.131 Y108.302 E3.09716
G1 X102.207 Y107.614 E3.14602
G1 X103.412 Y108.819 E3.26632
G1 X103.957 Y108.600 E3.30781
G1 X102.207 Y106.850 E3.48258
G1 X102.207 Y106.086 E3.53652
G1 X104.464 Y108.343 E3.76193
G1 X104.949 Y108.064 E3.80143
G1 X102.543 Y105.658 E4.04168
G1 X103.307 Y105.658 E4.09562
G1 X105.419 Y107.770 E4.30650
G1 X105.853 Y107.441 E4.34501
G1 X104.071 Y105.658 E4.52302
G1 X104.835 Y105.658 E4.57696
G1 X106.270 Y107.094 E4.72030
G1 X106.657 Y106.716 E4.75845
G1 X105.599 Y105.658 E4.86409
G1 X106.363 Y105.658 E4.91803
G1 X107.038 Y106.333 E4.98545
G1 X107.126 Y105.658 E5.03354
G1 X107.388 Y105.920 E5.05965
G1 X107.391 Y105.885 F5400.000
G1 X107.142 Y105.636 E5.08453 F1800.000
G1 X107.142 Y104.866 E5.13890
G1 X107.739 Y105.464 E5.19857
G1 X108.040 Y104.995 E5.23792
G1 X107.142 Y104.096 E5.32767
