; generated by Slic3r 1.2.9 on 2017-06-09 at 11:33:58

; external perimeters extrusion width = 0.40mm
; perimeters extrusion width = 0.48mm
; infill extrusion width = 0.48mm
; solid infill extrusion width = 0.48mm
; top infill extrusion width = 0.48mm
; support material extrusion width = 0.40mm

M107
M190 S100 ; set bed temperature
M104 S240 ; set temperature
G28 ; home all axes
G1 Z5 F5000 ; lift nozzle

M109 S240 ; wait for temperature to be reached
G21 ; set units to millimeters
G90 ; use absolute coordinates
M82 ; use absolute distances for extrusion
G92 E0
G1 Z0.300 F5400.000
G1 E-2.00000 F2400.00000
G92 E0
G1 Z0.450 F5400.000
G1 X89.604 Y79.787 F5400.000
G1 Z0.300 F5400.000
G1 E2.00000 F2400.00000
G1 X91.353 Y78.328 E2.15217 F1800.000
G1 X94.600 Y77.464 E2.37660
G1 X105.400 Y77.464 E3.09810
G1 X107.643 Y77.861 E3.25027
G1 X109.613 Y79.004 E3.40244 F1800.000
G1 X111.072 Y80.753 E3.55461
G1 X111.936 Y84.000 E3.77904
G1 X111.936 Y116.000 E5.91682
G1 X111.539 Y118.243 E6.06899
G1 X110.396 Y120.213 E6.22116
G1 X108.647 Y121.672 E6.37333
G1 X105.400 Y122.536 E6.59776
G1 X94.600 Y122.536 E7.31926
G1 X92.357 Y122.139 E7.47143
G1 X90.387 Y120.996 E7.62360
G1 X88.928 Y119.247 E7.77577
G1 X88.064 Y116.000 E8.00020
G1 X88.064 Y84.000 E10.13797
G1 X88.461 Y81.757 E10.29014
G1 X89.574 Y79.838 E10.43831
G1 E8.43831 F2400.00000
G92 E0
G1 Z0.450 F5400.000
G1 X104.029 Y114.629 F5400.000
G1 Z0.300 F5400.000
G1 E2.00000 F2400.00000
G1 X95.971 Y114.629 E2.53829 F1800.000
G1 X95.971 Y85.371 E4.49285
G1 X104.029 Y85.371 E5.03113
G1 X104.029 Y114.569 E6.98169
G1 X104.564 Y115.164 F5400.000
G1 X95.436 Y115.164 E7.59154 F1800.000
G1 X95.436 Y84.836 E9.61766
G1 X104.564 Y84.836 E10.22751
G1 X104.564 Y115.104 E12.24963
G1 X105.100 Y115.700 F5400.000
G1 X94.900 Y115.700 E12.93105 F1800.000
G1 X94.900 Y84.300 E15.02874
G1 X105.100 Y84.300 E15.71015
G1 X105.100 Y115.640 E17.80383
G1 X104.754 Y115.500 F5400.000
G1 X96.293 Y114.040 F5400.000
G1 X96.560 Y114.307 E17.82955 F1800.000
G1 X97.332 Y114.307 E17.88206
G1 X96.293 Y113.268 E17.98203
G1 X96.293 Y112.497 E18.03454
G1 X98.103 Y114.307 E18.20878
G1 X98.875 Y114.307 E18.26129
G1 X96.293 Y111.725 E18.50978
G1 X96.293 Y110.953 E18.56229
G1 X99.647 Y114.307 E18.88504
G1 X100.418 Y114.307 E18.93755
G1 X96.293 Y110.182 E19.33457
G1 X96.293 Y109.410 E19.38708
G1 X101.190 Y114.307 E19.85835
G1 X101.961 Y114.307 E19.91086
G1 X96.293 Y108.639 E20.45639
G1 X96.293 Y107.867 E20.50890
G1 X102.733 Y114.307 E21.12869
G1 X103.505 Y114.307 E21.18120
G1 X96.293 Y107.095 E21.87525
G1 X96.293 Y106.324 E21.92776
G1 X103.707 Y113.738 E22.64130
G1 X103.707 Y112.966 E22.69381
G1 X96.293 Y105.552 E23.40735
G1 X96.293 Y104.781 E23.45986
G1 X103.707 Y112.195 E24.17341
G1 X103.707 Y111.423 E24.22592
G1 X96.293 Y104.009 E24.93946
G1 X96.293 Y103.237 E24.99197
G1 X103.707 Y110.652 E25.70551
G1 X103.707 Y109.880 E25.75802
G1 X96.293 Y102.466 E26.47157
G1 X96.293 Y101.694 E26.52408
G1 X103.707 Y109.108 E27.23762
G1 X103.707 Y108.337 E27.29013
G1 X96.293 Y100.923 E28.00368
G1 X96.293 Y100.151 E28.05618
G1 X103.707 Y107.565 E28.76973
G1 X103.707 Y106.794 E28.82224
G1 X96.293 Y99.379 E29.53578
G1 X96.293 Y98.608 E29.58829
G1 X103.707 Y106.022 E30.30184
G1 X103.707 Y105.250 E30.35434
G1 X96.293 Y97.836 E31.06789
G1 X96.293 Y97.064 E31.12040
G1 X103.707 Y104.479 E31.83394
G1 X103.707 Y103.707 E31.88645
G1 X96.293 Y96.293 E32.60000
G1 X96.293 Y95.521 E32.65251
G1 X103.707 Y102.936 E33.36605
G1 X103.707 Y102.164 E33.41856
G1 X96.293 Y94.750 E34.13210
G1 X96.293 Y93.978 E34.18461
G1 X103.707 Y101.392 E34.89816
G1 X103.707 Y100.621 E34.95067
G1 X96.293 Y93.206 E35.66421
G1 X96.293 Y92.435 E35.71672
G1 X103.707 Y99.849 E36.43026
G1 X103.707 Y99.077 E36.48277
G1 X96.293 Y91.663 E37.19632
G1 X96.293 Y90.892 E37.24883
G1 X103.707 Y98.306 E37.96237
G1 X103.707 Y97.534 E38.01488
G1 X96.293 Y90.120 E38.72842
G1 X96.293 Y89.348 E38.78093
G1 X103.707 Y96.763 E39.49448
G1 X103.707 Y95.991 E39.54699
G1 X96.293 Y88.577 E40.26053
G1 X96.293 Y87.805 E40.31304
G1 X103.707 Y95.219 E41.02658
G1 X103.707 Y94.448 E41.07909
G1 X96.293 Y87.034 E41.79264
G1 X96.293 Y86.262 E41.84515
G1 X103.707 Y93.676 E42.55869
G1 X103.707 Y92.905 E42.61120
G1 X96.495 Y85.693 E43.30525
G1 X97.267 Y85.693 E43.35776
G1 X103.707 Y92.133 E43.97756
G1 X103.707 Y91.361 E44.03006
G1 X98.039 Y85.693 E44.57560
G1 X98.810 Y85.693 E44.62811
G1 X103.707 Y90.590 E45.09938
G1 X103.707 Y89.818 E45.15189
G1 X99.582 Y85.693 E45.54891
G1 X100.353 Y85.693 E45.60142
G1 X103.707 Y89.047 E45.92417
G1 X103.707 Y88.275 E45.97668
G1 X101.125 Y85.693 E46.22518
G1 X101.897 Y85.693 E46.27769
G1 X103.707 Y87.503 E46.45193
G1 X103.707 Y86.732 E46.50444
G1 X102.668 Y85.693 E46.60442
G1 X103.440 Y85.693 E46.65693
G1 X103.707 Y85.960 E46.68265
G1 Z0.300 F5400.000
G1 Z0.600 F5400.000
G1 X104.404 Y115.004 F5400.000
G1 X95.596 Y115.004 E47.14281 F1200.000
G1 X95.596 Y84.996 E48.71056
G1 X104.404 Y84.996 E49.17072
G1 X104.404 Y114.944 E50.73533
G1 X104.823 Y115.423 F5400.000
G1 X95.177 Y115.423 E51.23926 F1200.000
G1 X95.177 Y84.577 E52.85078
G1 X104.823 Y84.577 E53.35471
G1 X104.823 Y115.363 E54.96310
G1 X105.200 Y115.800 F5400.000
G1 X94.800 Y115.800 E55.39844 F600.000
G1 X94.800 Y84.200 E56.72123
G1 X105.200 Y84.200 E57.15658
G1 X105.200 Y115.740 E58.47685
G1 X104.854 Y115.600 F5400.000
G1 X103.939 Y114.757 F5400.000
G1 X104.157 Y114.539 E58.49297 F1200.000
G1 X104.157 Y113.945 E58.52403
G1 X103.345 Y114.757 E58.58409
G1 X102.752 Y114.757 E58.61515
G1 X104.157 Y113.352 E58.71914
G1 X104.157 Y112.758 E58.75021
G1 X102.158 Y114.757 E58.89813
G1 X101.565 Y114.757 E58.92920
G1 X104.157 Y112.165 E59.12106
G1 X104.157 Y111.571 E59.15213
G1 X100.971 Y114.757 E59.38792
G1 X100.378 Y114.757 E59.41899
G1 X104.157 Y110.978 E59.69872
G1 X104.157 Y110.384 E59.72979
G1 X99.784 Y114.757 E60.05345
G1 X99.191 Y114.757 E60.08452
G1 X104.157 Y109.791 E60.45212
G1 X104.157 Y109.197 E60.48319
G1 X98.597 Y114.757 E60.89473
G1 X98.004 Y114.757 E60.92579
G1 X104.157 Y108.604 E61.38127
G1 X104.157 Y108.010 E61.41233
G1 X97.410 Y114.757 E61.91174
G1 X96.817 Y114.757 E61.94281
G1 X104.157 Y107.417 E62.48616
G1 X104.157 Y106.823 E62.51722
G1 X96.223 Y114.757 E63.10450
G1 X95.843 Y114.543 E63.12732
G1 X104.157 Y106.230 E63.74273
G1 X104.157 Y105.636 E63.77380
G1 X95.843 Y113.950 E64.38921
G1 X95.843 Y113.356 E64.42028
G1 X104.157 Y105.043 E65.03569
G1 X104.157 Y104.449 E65.06675
G1 X95.843 Y112.763 E65.68217
G1 X95.843 Y112.169 E65.71323
G1 X104.157 Y103.856 E66.32864
G1 X104.157 Y103.262 E66.35971
G1 X95.843 Y111.576 E66.97512
G1 X95.843 Y110.982 E67.00619
G1 X104.157 Y102.669 E67.62160
G1 X104.157 Y102.075 E67.65267
G1 X95.843 Y110.389 E68.26808
G1 X95.843 Y109.795 E68.29915
G1 X104.157 Y101.482 E68.91456
G1 X104.157 Y100.888 E68.94562
G1 X95.843 Y109.202 E69.56103
G1 X95.843 Y108.608 E69.59210
G1 X104.157 Y100.295 E70.20751
G1 X104.157 Y99.701 E70.23858
G1 X95.843 Y108.015 E70.85399
G1 X95.843 Y107.421 E70.88506
G1 X104.157 Y99.108 E71.50047
G1 X104.157 Y98.514 E71.53154
G1 X95.843 Y106.828 E72.14695
G1 X95.843 Y106.234 E72.17802
G1 X104.157 Y97.921 E72.79343
G1 X104.157 Y97.327 E72.82449
G1 X95.843 Y105.640 E73.43990
G1 X95.843 Y105.047 E73.47097
G1 X104.157 Y96.734 E74.08638
G1 X104.157 Y96.140 E74.11745
G1 X95.843 Y104.453 E74.73286
G1 X95.843 Y103.860 E74.76393
G1 X104.157 Y95.547 E75.37934
G1 X104.157 Y94.953 E75.41041
G1 X95.843 Y103.266 E76.02582
G1 X95.843 Y102.673 E76.05688
G1 X104.157 Y94.360 E76.67230
G1 X104.157 Y93.766 E76.70336
G1 X95.843 Y102.079 E77.31877
G1 X95.843 Y101.486 E77.34984
G1 X104.157 Y93.172 E77.96525
G1 X104.157 Y92.579 E77.99632
G1 X95.843 Y100.892 E78.61173
G1 X95.843 Y100.299 E78.64280
G1 X104.157 Y91.985 E79.25821
G1 X104.157 Y91.392 E79.28928
G1 X95.843 Y99.705 E79.90469
G1 X95.843 Y99.112 E79.93575
G1 X104.157 Y90.798 E80.55117
G1 X104.157 Y90.205 E80.58223
G1 X95.843 Y98.518 E81.19764
G1 X95.843 Y97.925 E81.22871
G1 X104.157 Y89.611 E81.84412
G1 X104.157 Y89.018 E81.87519
G1 X95.843 Y97.331 E82.49060
G1 X95.843 Y96.738 E82.52167
G1 X104.157 Y88.424 E83.13708
G1 X104.157 Y87.831 E83.16815
G1 X95.843 Y96.144 E83.78356
G1 X95.843 Y95.551 E83.81462
G1 X104.157 Y87.237 E84.43004
G1 X104.157 Y86.644 E84.46110
G1 X95.843 Y94.957 E85.07651
G1 X95.843 Y94.364 E85.10758
G1 X104.157 Y86.050 E85.72299
G1 X104.157 Y85.457 E85.75406
G1 X95.843 Y93.770 E86.36947
G1 X95.843 Y93.177 E86.40054
G1 X103.777 Y85.243 E86.98782
G1 X103.183 Y85.243 E87.01889
G1 X95.843 Y92.583 E87.56223
G1 X95.843 Y91.990 E87.59330
G1 X102.590 Y85.243 E88.09271
G1 X101.996 Y85.243 E88.12377
G1 X95.843 Y91.396 E88.57925
G1 X95.843 Y90.803 E88.61031
G1 X101.403 Y85.243 E89.02185
G1 X100.809 Y85.243 E89.05292
G1 X95.843 Y90.209 E89.42052
G1 X95.843 Y89.616 E89.45159
G1 X100.216 Y85.243 E89.77525
G1 X99.622 Y85.243 E89.80632
G1 X95.843 Y89.022 E90.08605
G1 X95.843 Y88.429 E90.11712
G1 X99.029 Y85.243 E90.35291
G1 X98.435 Y85.243 E90.38398
G1 X95.843 Y87.835 E90.57584
G1 X95.843 Y87.242 E90.60691
G1 X97.842 Y85.243 E90.75483
G1 X97.248 Y85.243 E90.78590
G1 X95.843 Y86.648 E90.88988
G1 X95.843 Y86.055 E90.92095
G1 X96.655 Y85.243 E90.98100
G1 X96.061 Y85.243 E91.01207
G1 X95.843 Y85.461 E91.02819
G1 Z0.900 F5400.000
G1 X104.404 Y115.004 F5400.000
G1 X95.596 Y115.004 E91.48835 F1200.000
G1 X95.596 Y84.996 E93.05610
G1 X104.404 Y84.996 E93.51626
G1 X104.404 Y114.944 E95.08088
G1 X104.823 Y115.423 F5400.000
G1 X95.177 Y115.423 E95.58480 F1200.000
G1 X95.177 Y84.577 E97.19632
G1 X104.823 Y84.577 E97.70025
G1 X104.823 Y115.363 E99.30864
G1 X105.200 Y115.800 F5400.000
G1 X94.800 Y115.800 E99.74399 F600.000
G1 X94.800 Y84.200 E101.06677
G1 X105.200 Y84.200 E101.50212
G1 X105.200 Y115.740 E102.82239
G1 X104.854 Y115.600 F5400.000
G1 X96.061 Y114.757 F5400.000
G1 X95.843 Y114.539 E102.83851 F1200.000
G1 X95.843 Y113.945 E102.86958
G1 X96.655 Y114.757 E102.92963
G1 X97.248 Y114.757 E102.96070
G1 X95.843 Y113.352 E103.06468
G1 X95.843 Y112.758 E103.09575
G1 X97.842 Y114.757 E103.24367
G1 X98.435 Y114.757 E103.27474
G1 X95.843 Y112.165 E103.46660
G1 X95.843 Y111.571 E103.49767
G1 X99.029 Y114.757 E103.73346
G1 X99.622 Y114.757 E103.76453
G1 X95.843 Y110.978 E104.04426
G1 X95.843 Y110.384 E104.07533
G1 X100.216 Y114.757 E104.39899
G1 X100.809 Y114.757 E104.43006
G1 X95.843 Y109.791 E104.79766
G1 X95.843 Y109.197 E104.82873
G1 X101.403 Y114.757 E105.24027
G1 X101.996 Y114.757 E105.27133
G1 X95.843 Y108.604 E105.72681
G1 X95.843 Y108.010 E105.75787
G1 X102.590 Y114.757 E106.25728
G1 X103.183 Y114.757 E106.28835
G1 X95.843 Y107.417 E106.83169
G1 X95.843 Y106.823 E106.86276
G1 X103.777 Y114.757 E107.45004
G1 X104.157 Y114.543 E107.47286
G1 X95.843 Y106.230 E108.08827
G1 X95.843 Y105.636 E108.11934
G1 X104.157 Y113.950 E108.73475
G1 X104.157 Y113.356 E108.76581
G1 X95.843 Y105.043 E109.38123
G1 X95.843 Y104.449 E109.41229
G1 X104.157 Y112.763 E110.02770
G1 X104.157 Y112.169 E110.05877
G1 X95.843 Y103.856 E110.67418
G1 X95.843 Y103.262 E110.70525
G1 X104.157 Y111.576 E111.32066
G1 X104.157 Y110.982 E111.35173
G1 X95.843 Y102.669 E111.96714
G1 X95.843 Y102.075 E111.99821
G1 X104.157 Y110.389 E112.61362
G1 X104.157 Y109.795 E112.64468
G1 X95.843 Y101.482 E113.26010
G1 X95.843 Y100.888 E113.29116
G1 X104.157 Y109.202 E113.90657
G1 X104.157 Y108.608 E113.93764
G1 X95.843 Y100.295 E114.55305
G1 X95.843 Y99.701 E114.58412
G1 X104.157 Y108.015 E115.19953
G1 X104.157 Y107.421 E115.23060
G1 X95.843 Y99.108 E115.84601
G1 X95.843 Y98.514 E115.87708
G1 X104.157 Y106.828 E116.49249
G1 X104.157 Y106.234 E116.52355
G1 X95.843 Y97.921 E117.13897
G1 X95.843 Y97.327 E117.17003
G1 X104.157 Y105.640 E117.78544
G1 X104.157 Y105.047 E117.81651
G1 X95.843 Y96.734 E118.43192
G1 X95.843 Y96.140 E118.46299
G1 X104.157 Y104.453 E119.07840
G1 X104.157 Y103.860 E119.10947
G1 X95.843 Y95.547 E119.72488
G1 X95.843 Y94.953 E119.75595
G1 X104.157 Y103.266 E120.37136
G1 X104.157 Y102.673 E120.40242
G1 X95.843 Y94.360 E121.01784
G1 X95.843 Y93.766 E121.04890
G1 X104.157 Y102.079 E121.66431
G1 X104.157 Y101.486 E121.69538
G1 X95.843 Y93.172 E122.31079
G1 X95.843 Y92.579 E122.34186
G1 X104.157 Y100.892 E122.95727
G1 X104.157 Y100.299 E122.98834
G1 X95.843 Y91.985 E123.60375
G1 X95.843 Y91.392 E123.63482
G1 X104.157 Y99.705 E124.25023
G1 X104.157 Y99.112 E124.28129
G1 X95.843 Y90.798 E124.89671
G1 X95.843 Y90.205 E124.92777
G1 X104.157 Y98.518 E125.54318
G1 X104.157 Y97.925 E125.57425
G1 X95.843 Y89.611 E126.18966
G1 X95.843 Y89.018 E126.22073
G1 X104.157 Y97.331 E126.83614
G1 X104.157 Y96.738 E126.86721
G1 X95.843 Y88.424 E127.48262
G1 X95.843 Y87.831 E127.51369
G1 X104.157 Y96.144 E128.12910
G1 X104.157 Y95.551 E128.16016
G1 X95.843 Y87.237 E128.77558
G1 X95.843 Y86.644 E128.80664
G1 X104.157 Y94.957 E129.42205
G1 X104.157 Y94.364 E129.45312
G1 X95.843 Y86.050 E130.06853
G1 X95.843 Y85.457 E130.09960
G1 X104.157 Y93.770 E130.71501
G1 X104.157 Y93.177 E130.74608
G1 X96.223 Y85.243 E131.33336
G1 X96.817 Y85.243 E131.36443
G1 X104.157 Y92.583 E131.90777
G1 X104.157 Y91.990 E131.93884
G1 X97.410 Y85.243 E132.43825
G1 X98.004 Y85.243 E132.46931
G1 X104.157 Y91.396 E132.92479
G1 X104.157 Y90.803 E132.95585
G1 X98.597 Y85.243 E133.36739
G1 X99.191 Y85.243 E133.39846
G1 X104.157 Y90.209 E133.76606
G1 X104.157 Y89.616 E133.79713
G1 X99.784 Y85.243 E134.12079
G1 X100.378 Y85.243 E134.15186
G1 X104.157 Y89.022 E134.43159
G1 X104.157 Y88.429 E134.46266
G1 X100.971 Y85.243 E134.69845
G1 X101.565 Y85.243 E134.72952
G1 X104.157 Y87.835 E134.92138
G1 X104.157 Y87.242 E134.95245
G1 X102.158 Y85.243 E135.10037
G1 X102.752 Y85.243 E135.13144
G1 X104.157 Y86.648 E135.23543
G1 X104.157 Y86.055 E135.26649
G1 X103.345 Y85.243 E135.32655
G1 X103.939 Y85.243 E135.35761
G1 X104.157 Y85.461 E135.37373
M106 S170.85
G1 Z1.200 F5400.000
G1 X104.404 Y115.004 F5400.000
G1 X95.596 Y115.004 E135.83389 F1200.000
G1 X95.596 Y84.996 E137.40164
G1 X104.404 Y84.996 E137.86180
G1 X104.404 Y114.944 E139.42642
G1 X104.823 Y115.423 F5400.000
G1 X95.177 Y115.423 E139.93035 F1200.000
G1 X95.177 Y84.577 E141.54187
G1 X104.823 Y84.577 E142.04580
G1 X104.823 Y115.363 E143.65418
G1 X105.200 Y115.800 F5400.000
G1 X94.800 Y115.800 E144.08953 F600.000
G1 X94.800 Y84.200 E145.41231
G1 X105.200 Y84.200 E145.84766
G1 X105.200 Y115.740 E147.16794
G1 X104.854 Y115.600 F5400.000
G1 X102.886 Y114.757 F5400.000
G1 X104.157 Y113.486 E147.26179 F1200.000
G1 X104.157 Y112.302 E147.32369
G1 X101.702 Y114.757 E147.50509
G1 X100.517 Y114.757 E147.56699
G1 X104.157 Y111.117 E147.83592
G1 X104.157 Y109.932 E147.89782
G1 X99.332 Y114.757 E148.25429
G1 X98.147 Y114.757 E148.31619
G1 X104.157 Y108.747 E148.76020
G1 X104.157 Y107.563 E148.82209
G1 X96.963 Y114.757 E149.35364
G1 X95.843 Y114.691 E149.41221
G1 X104.157 Y106.378 E150.02645
G1 X104.157 Y105.193 E150.08835
G1 X95.843 Y113.506 E150.70259
G1 X95.843 Y112.322 E150.76448
G1 X104.157 Y104.008 E151.37872
G1 X104.157 Y102.823 E151.44062
G1 X95.843 Y111.137 E152.05486
G1 X95.843 Y109.952 E152.11676
G1 X104.157 Y101.639 E152.73100
G1 X104.157 Y100.454 E152.79289
G1 X95.843 Y108.767 E153.40713
G1 X95.843 Y107.583 E153.46903
G1 X104.157 Y99.269 E154.08327
G1 X104.157 Y98.084 E154.14517
G1 X95.843 Y106.398 E154.75941
G1 X95.843 Y105.213 E154.82130
G1 X104.157 Y96.900 E155.43554
G1 X104.157 Y95.715 E155.49744
G1 X95.843 Y104.028 E156.11168
G1 X95.843 Y102.843 E156.17358
G1 X104.157 Y94.530 E156.78781
G1 X104.157 Y93.345 E156.84971
G1 X95.843 Y101.659 E157.46395
G1 X95.843 Y100.474 E157.52585
G1 X104.157 Y92.161 E158.14009
G1 X104.157 Y90.976 E158.20199
G1 X95.843 Y99.289 E158.81622
G1 X95.843 Y98.104 E158.87812
G1 X104.157 Y89.791 E159.49236
G1 X104.157 Y88.606 E159.55426
G1 X95.843 Y96.920 E160.16850
G1 X95.843 Y95.735 E160.23040
G1 X104.157 Y87.421 E160.84463
G1 X104.157 Y86.237 E160.90653
G1 X95.843 Y94.550 E161.52077
G1 X95.843 Y93.365 E161.58267
G1 X103.965 Y85.243 E162.18276
G1 X102.781 Y85.243 E162.24466
G1 X95.843 Y92.181 E162.75722
G1 X95.843 Y90.996 E162.81912
G1 X101.596 Y85.243 E163.24414
G1 X100.411 Y85.243 E163.30604
G1 X95.843 Y89.811 E163.64353
